;FLAVOR:Marlin
;TIME:7291
;Filament used: 3.77385m
;Layer height: 0.2
;MINX:86.024
;MINY:87.629
;MINZ:0.2
;MAXX:164.13
;MAXY:130.491
;MAXZ:34.2
;TARGET_MACHINE.NAME:Creality Ender-3 Pro
;Generated with Cura_SteamEngine 5.6.0
M82 ;absolute extrusion mode
; Ender 3 Custom Start G-code
G92 E0 ; Reset Extruder
G28 ; Home all axes
G1 Z5.0 F3000 ; Move Z Axis up a bit during heating to not damage bed
M104 S175 ; Start heating up the nozzle most of the way
M190 S60 ; Start heating the bed, wait until target temperature reached
M109 S200 ; Finish heating the nozzle
G1 Z2.0 F3000 ; Move Z Axis up little to prevent scratching of Heat Bed
G1 X0.1 Y20 Z0.3 F5000.0 ; Move to start position
G1 X0.1 Y200.0 Z0.3 F1500.0 E15 ; Draw the first line
G1 X0.4 Y200.0 Z0.3 F5000.0 ; Move to side a little
G1 X0.4 Y20 Z0.3 F1500.0 E30 ; Draw the second line
G92 E0 ; Reset Extruder
G1 Z2.0 F3000 ; Move Z Axis up little to prevent scratching of Heat Bed
G1 X5 Y20 Z0.3 F5000.0 ; Move over to prevent blob squish
G92 E0
G92 E0
G1 F1500 E-6.5
;LAYER_COUNT:171
;LAYER:0
M107
G0 F6000 X95.099 Y91.084 Z0.2
;TYPE:SKIRT
G1 F1500 E0
G1 F1200 X95.824 Y90.445 E0.03214
G1 X96.329 Y90.059 E0.05328
G1 X96.616 Y89.855 E0.065
G1 X97.436 Y89.326 E0.09745
G1 X98.367 Y88.838 E0.13241
G1 X98.644 Y88.711 E0.14255
G1 X99.545 Y88.345 E0.17489
G1 X100.465 Y88.061 E0.20692
G1 X101.082 Y87.92 E0.22797
G1 X101.468 Y87.844 E0.24105
G1 X102.434 Y87.699 E0.27354
G1 X103.44 Y87.638 E0.30706
G1 X104.165 Y87.629 E0.33118
G1 X105.195 Y87.667 E0.36546
G1 X108.243 Y87.936 E0.46723
G1 X110.737 Y88.081 E0.55032
G1 X113.313 Y88.158 E0.63604
G1 X115.229 Y88.169 E0.69977
G1 X116.384 Y88.163 E0.73818
G1 X117.42 Y88.211 E0.77268
G1 X119.035 Y88.368 E0.82664
G1 X121.566 Y88.549 E0.91104
G1 X124.132 Y88.659 E0.99646
G1 X126.633 Y88.697 E1.07966
G1 X129.13 Y88.663 E1.16272
G1 X131.7 Y88.556 E1.24827
G1 X132.817 Y88.485 E1.2855
G1 X133.405 Y88.463 E1.30507
G1 X134.392 Y88.453 E1.3379
G1 X135.4 Y88.492 E1.37145
G1 X138.452 Y88.763 E1.47336
G1 X140.998 Y88.911 E1.55818
G1 X143.481 Y88.985 E1.6408
G1 X146.615 Y88.988 E1.74504
G1 X147.838 Y89.06 E1.78579
G1 X148.617 Y89.158 E1.8119
G1 X149.114 Y89.235 E1.82863
G1 X150.068 Y89.428 E1.861
G1 X150.999 Y89.704 E1.8933
G1 X151.782 Y90.008 E1.92123
G1 X152.174 Y90.179 E1.93546
G1 X153.05 Y90.607 E1.96789
G1 X153.823 Y91.073 E1.99791
G1 X154.679 Y91.699 E2.03318
G1 X155.655 Y92.589 E2.07711
G1 X155.977 Y92.924 E2.09256
G1 X156.618 Y93.657 E2.12495
G1 X157.17 Y94.41 E2.15601
G1 X157.536 Y94.994 E2.17893
G1 X157.951 Y95.707 E2.20637
G1 X158.802 Y97.243 E2.26477
G1 X159.221 Y98.091 E2.29623
G1 X159.695 Y99.369 E2.34157
G1 X159.818 Y99.78 E2.35584
G1 X160.082 Y100.872 E2.3932
G1 X160.261 Y101.85 E2.42627
G1 X160.439 Y102.899 E2.46166
G1 X160.925 Y105.336 E2.54431
G1 X161.49 Y107.809 E2.62868
G1 X162.121 Y110.246 E2.71241
G1 X162.815 Y112.649 E2.7956
G1 X163.635 Y115.242 E2.88605
G1 X163.885 Y116.183 E2.91844
G1 X164.051 Y117.144 E2.95087
G1 X164.13 Y118.116 E2.98331
G1 X164.122 Y119.088 E3.01564
G1 X164.03 Y120.057 E3.04801
G1 X163.852 Y121.015 E3.08042
G1 X163.59 Y121.953 E3.11281
G1 X163.246 Y122.864 E3.1452
G1 X162.823 Y123.741 E3.17759
G1 X162.325 Y124.578 E3.20998
G1 X161.797 Y125.311 E3.24003
G1 X161.138 Y126.076 E3.27361
G1 X160.378 Y126.809 E3.30873
G1 X159.671 Y127.424 E3.3399
G1 X158.917 Y128.043 E3.37234
G1 X158.133 Y128.622 E3.40476
G1 X157.302 Y129.128 E3.43712
G1 X156.429 Y129.56 E3.46951
G1 X155.588 Y129.889 E3.49955
G1 X154.585 Y130.181 E3.5343
G1 X153.629 Y130.369 E3.5667
G1 X152.661 Y130.47 E3.59907
G1 X151.689 Y130.485 E3.6314
G1 X150.818 Y130.427 E3.66044
G1 X149.782 Y130.315 E3.6951
G1 X147.229 Y130.074 E3.78039
G1 X144.737 Y129.911 E3.86345
G1 X142.204 Y129.817 E3.94775
G1 X139.67 Y129.793 E4.03204
G1 X137.171 Y129.842 E4.11517
G1 X134.666 Y129.962 E4.19858
G1 X132.173 Y130.151 E4.28174
G1 X130.477 Y130.332 E4.33847
G1 X129.347 Y130.441 E4.37623
G1 X128.375 Y130.491 E4.4086
G1 X127.443 Y130.457 E4.43962
G1 X126.733 Y130.377 E4.46338
G1 X124.148 Y130.002 E4.55026
G1 X121.954 Y129.746 E4.62373
G1 X119.627 Y129.493 E4.70158
G1 X117.022 Y129.251 E4.7886
G1 X114.486 Y129.087 E4.87312
G1 X111.981 Y128.995 E4.95649
G1 X109.454 Y128.974 E5.04054
G1 X106.954 Y129.024 E5.12371
G1 X104.413 Y129.147 E5.20832
G1 X101.947 Y129.336 E5.29058
G1 X100.305 Y129.513 E5.34551
G1 X99.19 Y129.62 E5.38277
G1 X98.216 Y129.67 E5.41521
G1 X97.244 Y129.631 E5.44756
G1 X96.278 Y129.507 E5.47996
G1 X95.327 Y129.298 E5.51234
G1 X94.398 Y129.006 E5.54473
G1 X93.498 Y128.632 E5.57715
G1 X92.666 Y128.198 E5.60836
G1 X91.826 Y127.663 E5.64148
G1 X91.376 Y127.327 E5.66016
G1 X90.817 Y126.88 E5.68396
G1 X89.865 Y126.068 E5.72558
G1 X89.154 Y125.402 E5.75798
G1 X88.505 Y124.676 E5.79037
G1 X87.922 Y123.895 E5.82279
G1 X87.412 Y123.067 E5.85513
G1 X86.975 Y122.197 E5.88751
G1 X86.641 Y121.358 E5.91755
G1 X86.343 Y120.356 E5.95232
G1 X86.162 Y119.472 E5.98233
G1 X86.044 Y118.433 E6.01711
G1 X86.024 Y117.459 E6.04951
G1 X86.09 Y116.488 E6.08188
G1 X86.241 Y115.526 E6.11427
G1 X86.465 Y114.619 E6.14534
G1 X86.718 Y113.856 E6.17208
G1 X86.941 Y113.26 E6.19324
G1 X87.806 Y110.85 E6.27841
G1 X88.578 Y108.485 E6.36115
G1 X89.299 Y106.048 E6.44568
G1 X89.958 Y103.573 E6.53087
G1 X90.519 Y101.181 E6.61259
G1 X91.211 Y97.877 E6.72486
G1 X91.435 Y97.002 E6.7549
G1 X92.007 Y95.488 E6.80873
G1 X92.509 Y94.506 E6.84541
G1 X92.785 Y94.046 E6.86326
G1 X93.228 Y93.351 E6.89067
G1 X93.781 Y92.563 E6.92269
G1 X94.189 Y92.064 E6.94413
G1 X94.451 Y91.764 E6.95737
G1 X95.099 Y91.084 E6.98861
G0 F6000 X95.389 Y91.36
G1 F1200 X96.088 Y90.745 E7.01958
G1 X96.561 Y90.385 E7.03935
G1 X96.833 Y90.191 E7.05046
G1 X97.622 Y89.68 E7.08173
G1 X98.535 Y89.201 E7.11602
G1 X98.795 Y89.081 E7.12555
G1 X99.663 Y88.727 E7.15672
G1 X100.555 Y88.451 E7.18778
G1 X101.16 Y88.312 E7.20843
G1 X101.528 Y88.239 E7.2209
G1 X102.458 Y88.098 E7.25219
G1 X103.445 Y88.038 E7.28508
G1 X104.15 Y88.029 E7.30853
G1 X105.18 Y88.067 E7.34281
G1 X108.218 Y88.335 E7.44425
G1 X110.725 Y88.481 E7.52777
G1 X113.301 Y88.558 E7.61349
G1 X115.229 Y88.569 E7.67761
G1 X116.365 Y88.563 E7.7154
G1 X117.401 Y88.611 E7.74989
G1 X119.006 Y88.767 E7.80353
G1 X121.549 Y88.949 E7.88832
G1 X124.115 Y89.059 E7.97375
G1 X126.632 Y89.097 E8.05747
G1 X129.147 Y89.063 E8.14113
G1 X131.717 Y88.956 E8.22668
G1 X132.843 Y88.884 E8.26421
G1 X133.409 Y88.863 E8.28305
G1 X134.377 Y88.853 E8.31524
G1 X135.385 Y88.892 E8.3488
G1 X138.427 Y89.162 E8.45037
G1 X140.986 Y89.311 E8.53563
G1 X143.469 Y89.385 E8.61825
G1 X146.592 Y89.387 E8.72212
G1 X147.788 Y89.457 E8.76197
G1 X148.556 Y89.553 E8.78771
G1 X149.035 Y89.627 E8.80383
G1 X149.955 Y89.812 E8.83504
G1 X150.854 Y90.077 E8.86622
G1 X151.623 Y90.375 E8.89365
G1 X151.999 Y90.538 E8.90728
G1 X152.843 Y90.95 E8.93851
G1 X153.616 Y91.416 E8.96853
G1 X154.409 Y91.995 E9.00119
G1 X155.385 Y92.885 E9.04512
G1 X155.676 Y93.188 E9.0591
G1 X156.295 Y93.893 E9.0903
G1 X156.847 Y94.646 E9.12135
G1 X157.19 Y95.195 E9.14289
G1 X157.601 Y95.901 E9.17006
G1 X158.443 Y97.42 E9.22782
G1 X158.862 Y98.268 E9.25928
G1 X159.312 Y99.484 E9.30241
G1 X159.429 Y99.874 E9.31595
G1 X159.693 Y100.966 E9.35331
G1 X159.867 Y101.917 E9.38547
G1 X160.047 Y102.977 E9.42123
G1 X160.535 Y105.425 E9.50425
G1 X161.103 Y107.909 E9.589
G1 X161.737 Y110.357 E9.67311
G1 X162.434 Y112.77 E9.75665
G1 X163.249 Y115.345 E9.84648
G1 X163.491 Y116.252 E9.8777
G1 X163.652 Y117.177 E9.90893
G1 X163.73 Y118.113 E9.94017
G1 X163.724 Y119.051 E9.97137
G1 X163.637 Y119.985 E10.00257
G1 X163.467 Y120.908 E10.03378
G1 X163.216 Y121.812 E10.06499
G1 X162.886 Y122.691 E10.09622
G1 X162.479 Y123.537 E10.12744
G1 X162 Y124.344 E10.15866
G1 X161.472 Y125.077 E10.1887
G1 X160.86 Y125.788 E10.2199
G1 X160.1 Y126.521 E10.25502
G1 X159.417 Y127.115 E10.28513
G1 X158.679 Y127.722 E10.31691
G1 X157.924 Y128.281 E10.34816
G1 X157.124 Y128.77 E10.37934
G1 X156.283 Y129.187 E10.41056
G1 X155.442 Y129.516 E10.4406
G1 X154.507 Y129.789 E10.47299
G1 X153.587 Y129.971 E10.50419
G1 X152.654 Y130.07 E10.53539
G1 X151.716 Y130.086 E10.5666
G1 X150.861 Y130.029 E10.5951
G1 X149.825 Y129.917 E10.62975
G1 X147.26 Y129.675 E10.71545
G1 X144.752 Y129.511 E10.79904
G1 X142.219 Y129.417 E10.88335
G1 X139.666 Y129.393 E10.96826
G1 X137.152 Y129.442 E11.05189
G1 X134.647 Y129.562 E11.13531
G1 X132.134 Y129.753 E11.21913
G1 X130.438 Y129.934 E11.27586
G1 X129.326 Y130.042 E11.31302
G1 X128.389 Y130.091 E11.34423
G1 X127.487 Y130.059 E11.37425
G1 X126.79 Y129.981 E11.39757
G1 X124.205 Y129.606 E11.48445
G1 X121.997 Y129.348 E11.55839
G1 X119.67 Y129.096 E11.63624
G1 X117.048 Y128.852 E11.72382
G1 X114.501 Y128.687 E11.80871
G1 X111.996 Y128.595 E11.89209
G1 X109.449 Y128.574 E11.9768
G1 X106.935 Y128.624 E12.06044
G1 X104.394 Y128.747 E12.14505
G1 X101.907 Y128.938 E12.22801
G1 X100.267 Y129.115 E12.28287
G1 X99.169 Y129.221 E12.31956
G1 X98.231 Y129.27 E12.3508
G1 X97.294 Y129.234 E12.38199
G1 X96.363 Y129.116 E12.4132
G1 X95.446 Y128.916 E12.44442
G1 X94.551 Y128.636 E12.47561
G1 X93.683 Y128.277 E12.50685
G1 X92.851 Y127.843 E12.53806
G1 X92.065 Y127.342 E12.56906
G1 X91.626 Y127.015 E12.58727
G1 X91.076 Y126.575 E12.6107
G1 X90.138 Y125.776 E12.65168
G1 X89.452 Y125.135 E12.68291
G1 X88.825 Y124.436 E12.71414
G1 X88.262 Y123.685 E12.74536
G1 X87.769 Y122.887 E12.77655
G1 X87.347 Y122.049 E12.80776
G1 X87.013 Y121.21 E12.8378
G1 X86.735 Y120.276 E12.87021
G1 X86.554 Y119.392 E12.90022
G1 X86.444 Y118.424 E12.93262
G1 X86.423 Y117.485 E12.96386
G1 X86.485 Y116.549 E12.99506
G1 X86.629 Y115.622 E13.02626
G1 X86.845 Y114.745 E13.0563
G1 X87.093 Y113.996 E13.08255
G1 X87.316 Y113.4 E13.10371
G1 X88.182 Y110.985 E13.18904
G1 X88.962 Y108.598 E13.27257
G1 X89.683 Y106.161 E13.35709
G1 X90.344 Y103.676 E13.44262
G1 X90.911 Y101.263 E13.52506
G1 X91.599 Y97.976 E13.63676
G1 X91.823 Y97.101 E13.6668
G1 X92.363 Y95.67 E13.71767
G1 X92.852 Y94.712 E13.75344
G1 X93.123 Y94.261 E13.77094
G1 X93.556 Y93.58 E13.79779
G1 X94.091 Y92.816 E13.82881
G1 X94.491 Y92.327 E13.84982
G1 X94.741 Y92.04 E13.86248
G1 X95.389 Y91.36 E13.89372
G0 F6000 X95.653 Y91.66
G1 F1200 X96.331 Y91.063 E13.92377
G1 X96.794 Y90.71 E13.94313
G1 X97.051 Y90.526 E13.95364
G1 X97.808 Y90.034 E13.98367
G1 X98.703 Y89.564 E14.0173
G1 X98.947 Y89.451 E14.02624
G1 X99.782 Y89.109 E14.05625
G1 X100.645 Y88.841 E14.08631
G1 X101.238 Y88.704 E14.10655
G1 X101.589 Y88.634 E14.11845
G1 X102.482 Y88.497 E14.1485
G1 X103.45 Y88.438 E14.18076
G1 X104.135 Y88.429 E14.20354
G1 X105.165 Y88.467 E14.23782
G1 X108.193 Y88.734 E14.33893
G1 X110.713 Y88.881 E14.42288
G1 X113.289 Y88.958 E14.5086
G1 X115.229 Y88.969 E14.57313
G1 X116.346 Y88.963 E14.61028
G1 X117.382 Y89.011 E14.64477
G1 X118.977 Y89.166 E14.69807
G1 X121.532 Y89.349 E14.78327
G1 X124.098 Y89.459 E14.86869
G1 X126.631 Y89.497 E14.95295
G1 X129.164 Y89.463 E15.03721
G1 X131.734 Y89.356 E15.12276
G1 X132.869 Y89.283 E15.16059
G1 X133.413 Y89.263 E15.17869
G1 X134.362 Y89.253 E15.21026
G1 X135.37 Y89.292 E15.24381
G1 X138.402 Y89.561 E15.34505
G1 X140.974 Y89.711 E15.43074
G1 X143.457 Y89.785 E15.51336
G1 X146.569 Y89.786 E15.61687
G1 X147.739 Y89.854 E15.65585
G1 X148.495 Y89.948 E15.68119
G1 X148.957 Y90.019 E15.69673
G1 X149.843 Y90.196 E15.72678
G1 X150.71 Y90.45 E15.75683
G1 X151.464 Y90.742 E15.78373
G1 X151.824 Y90.898 E15.79678
G1 X152.636 Y91.293 E15.82681
G1 X153.409 Y91.759 E15.85683
G1 X154.139 Y92.291 E15.88687
G1 X155.115 Y93.181 E15.9308
G1 X155.376 Y93.452 E15.94332
G1 X155.973 Y94.13 E15.97337
G1 X156.508 Y94.858 E16.00341
G1 X156.844 Y95.396 E16.02451
G1 X157.251 Y96.095 E16.05141
G1 X158.085 Y97.598 E16.10858
G1 X158.487 Y98.407 E16.13863
G1 X158.929 Y99.599 E16.18091
G1 X159.04 Y99.968 E16.19373
G1 X159.304 Y101.06 E16.2311
G1 X159.473 Y101.984 E16.26234
G1 X159.655 Y103.055 E16.29847
G1 X160.145 Y105.514 E16.38187
G1 X160.716 Y108.009 E16.467
G1 X161.353 Y110.468 E16.55148
G1 X162.053 Y112.891 E16.63537
G1 X162.863 Y115.449 E16.72461
G1 X163.097 Y116.321 E16.75464
G1 X163.253 Y117.211 E16.78469
G1 X163.33 Y118.111 E16.81473
G1 X163.326 Y119.014 E16.84477
G1 X163.243 Y119.913 E16.8748
G1 X163.081 Y120.802 E16.90485
G1 X162.841 Y121.672 E16.93487
G1 X162.525 Y122.518 E16.96491
G1 X162.135 Y123.333 E16.99496
G1 X161.675 Y124.11 E17.02499
G1 X161.147 Y124.843 E17.05504
G1 X160.557 Y125.527 E17.08508
G1 X159.837 Y126.219 E17.11829
G1 X159.163 Y126.806 E17.14802
G1 X158.44 Y127.401 E17.17916
G1 X157.715 Y127.94 E17.20921
G1 X156.946 Y128.412 E17.23922
G1 X156.137 Y128.814 E17.26927
G1 X155.296 Y129.143 E17.29931
G1 X154.429 Y129.397 E17.32935
G1 X153.544 Y129.573 E17.35937
G1 X152.646 Y129.67 E17.38941
G1 X151.743 Y129.687 E17.41945
G1 X150.904 Y129.631 E17.44741
G1 X149.868 Y129.519 E17.48207
G1 X147.291 Y129.276 E17.56816
G1 X144.767 Y129.111 E17.65229
G1 X142.234 Y129.017 E17.7366
G1 X139.662 Y128.993 E17.82215
G1 X137.133 Y129.042 E17.90628
G1 X134.628 Y129.162 E17.98969
G1 X132.091 Y129.355 E18.07431
G1 X130.399 Y129.536 E18.13091
G1 X129.305 Y129.643 E18.16747
G1 X128.403 Y129.691 E18.19751
G1 X127.501 Y129.659 E18.22753
G1 X126.847 Y129.585 E18.24942
G1 X124.262 Y129.21 E18.3363
G1 X122.04 Y128.95 E18.41071
G1 X119.713 Y128.699 E18.48856
G1 X117.074 Y128.453 E18.57671
G1 X114.516 Y128.287 E18.66197
G1 X112.011 Y128.195 E18.74534
G1 X109.444 Y128.174 E18.83072
G1 X106.916 Y128.224 E18.91482
G1 X104.375 Y128.347 E18.99943
G1 X101.866 Y128.54 E19.08313
G1 X100.228 Y128.717 E19.13793
G1 X99.148 Y128.822 E19.17402
G1 X98.246 Y128.87 E19.20406
G1 X97.344 Y128.837 E19.23408
G1 X96.448 Y128.725 E19.26411
G1 X95.565 Y128.534 E19.29416
G1 X94.703 Y128.266 E19.32419
G1 X93.867 Y127.922 E19.35425
G1 X93.066 Y127.506 E19.38427
G1 X92.304 Y127.021 E19.41432
G1 X91.876 Y126.703 E19.43205
G1 X91.335 Y126.27 E19.4551
G1 X90.41 Y125.483 E19.49549
G1 X89.749 Y124.868 E19.52552
G1 X89.145 Y124.196 E19.55557
G1 X88.602 Y123.474 E19.58562
G1 X88.126 Y122.707 E19.61564
G1 X87.719 Y121.901 E19.64568
G1 X87.385 Y121.062 E19.67571
G1 X87.127 Y120.196 E19.70576
G1 X86.946 Y119.312 E19.73578
G1 X86.844 Y118.414 E19.76584
G1 X86.822 Y117.511 E19.79588
G1 X86.88 Y116.61 E19.82591
G1 X87.017 Y115.718 E19.85592
G1 X87.233 Y114.841 E19.88597
G1 X87.468 Y114.136 E19.91068
G1 X87.691 Y113.54 E19.93185
G1 X88.558 Y111.12 E20.01735
G1 X89.346 Y108.711 E20.10165
G1 X90.067 Y106.274 E20.18618
G1 X90.73 Y103.779 E20.27204
G1 X91.303 Y101.345 E20.35521
G1 X91.987 Y98.075 E20.46632
G1 X92.211 Y97.2 E20.49636
G1 X92.719 Y95.852 E20.54428
G1 X93.195 Y94.918 E20.57914
G1 X93.461 Y94.475 E20.59633
G1 X93.884 Y93.809 E20.62257
G1 X94.401 Y93.069 E20.6526
G1 X94.793 Y92.589 E20.67321
G1 X95.031 Y92.315 E20.68528
G1 X95.653 Y91.66 E20.71532
G1 F1500 E14.21532
G0 F6000 X102.848 Y99.156
G1 F1500 E20.71532
G1 F1200 X103.119 Y98.962 E20.72641
G1 X103.309 Y98.878 E20.73332
G1 X103.646 Y98.817 E20.74471
G1 X104.256 Y98.818 E20.765
G1 X104.68 Y98.942 E20.77969
G1 X105.547 Y99.27 E20.81052
G1 X105.569 Y99.277 E20.81129
G1 X105.928 Y99.368 E20.82361
G1 X105.94 Y99.371 E20.82402
G1 X106.302 Y99.439 E20.83627
G1 X106.315 Y99.441 E20.83671
G1 X106.692 Y99.486 E20.84933
G1 X106.707 Y99.487 E20.84983
G1 X107.409 Y99.519 E20.87321
G1 X107.419 Y99.519 E20.87354
G1 X107.861 Y99.516 E20.88824
G1 X107.882 Y99.515 E20.88894
G1 X108.459 Y99.45 E20.90825
G1 X108.487 Y99.445 E20.9092
G1 X108.606 Y99.414 E20.91329
G1 X111.025 Y99.408 E20.99374
G1 X111.597 Y99.465 E21.01286
G1 X111.604 Y99.466 E21.0131
G1 X112.328 Y99.513 E21.03723
G1 X112.334 Y99.513 E21.03743
G1 X112.644 Y99.523 E21.04775
G1 X112.736 Y99.546 E21.0509
G1 X112.77 Y99.551 E21.05204
G1 X113.569 Y99.609 E21.07869
G1 X113.579 Y99.61 E21.07902
G1 X114.17 Y99.623 E21.09868
G1 X114.182 Y99.623 E21.09908
G1 X114.569 Y99.607 E21.11196
G1 X114.581 Y99.606 E21.11237
G1 X114.957 Y99.568 E21.12493
G1 X114.965 Y99.567 E21.1252
G1 X115.415 Y99.503 E21.14032
G1 X115.42 Y99.503 E21.14049
G1 X116.03 Y99.401 E21.16106
G1 X116.388 Y99.354 E21.17307
G1 X117.194 Y99.462 E21.20011
G1 X117.493 Y99.592 E21.21096
G1 X117.722 Y99.829 E21.22192
G1 X118.873 Y101.88 E21.30014
