;FLAVOR:Marlin
;TIME:5816
;Filament used: 3.05472m
;Layer height: 0.2
;MINX:88.109
;MINY:74.428
;MINZ:0.2
;MAXX:131.891
;MAXY:133.549
;MAXZ:25.4
;TARGET_MACHINE.NAME:Creality Ender-3 Pro
;Generated with Cura_SteamEngine 5.6.0
M82 ;absolute extrusion mode
; Ender 3 Custom Start G-code
G92 E0 ; Reset Extruder
G28 ; Home all axes
G1 Z5.0 F3000 ; Move Z Axis up a bit during heating to not damage bed
M104 S175 ; Start heating up the nozzle most of the way
M190 S60 ; Start heating the bed, wait until target temperature reached
M109 S200 ; Finish heating the nozzle
G1 Z2.0 F3000 ; Move Z Axis up little to prevent scratching of Heat Bed
G1 X0.1 Y20 Z0.3 F5000.0 ; Move to start position
G1 X0.1 Y200.0 Z0.3 F1500.0 E15 ; Draw the first line
G1 X0.4 Y200.0 Z0.3 F5000.0 ; Move to side a little
G1 X0.4 Y20 Z0.3 F1500.0 E30 ; Draw the second line
G92 E0 ; Reset Extruder
G1 Z2.0 F3000 ; Move Z Axis up little to prevent scratching of Heat Bed
G1 X5 Y20 Z0.3 F5000.0 ; Move over to prevent blob squish
G92 E0
G92 E0
G1 F1500 E-6.5
;LAYER_COUNT:127
;LAYER:0
M107
G0 F6000 X95.263 Y79.229 Z0.2
;TYPE:SKIRT
G1 F1500 E0
G1 F1200 X95.994 Y78.48 E0.03481
G1 X96.734 Y77.85 E0.06713
G1 X97.529 Y77.285 E0.09957
G1 X98.369 Y76.795 E0.13192
G1 X99.22 Y76.393 E0.16322
G1 X100.334 Y75.992 E0.2026
G1 X100.827 Y75.845 E0.21971
G1 X101.719 Y75.614 E0.25036
G1 X102.305 Y75.489 E0.27029
G1 X104.444 Y75.092 E0.34265
G1 X105.819 Y74.807 E0.38935
G1 X106.675 Y74.641 E0.41835
G1 X107.568 Y74.508 E0.44838
G1 X108.55 Y74.447 E0.4811
G1 X109.648 Y74.429 E0.51763
G1 X110.601 Y74.428 E0.54933
G1 X111.48 Y74.441 E0.57856
G1 X112.454 Y74.502 E0.61102
G1 X113.434 Y74.651 E0.64399
G1 X116.001 Y75.163 E0.73105
G1 X117.411 Y75.426 E0.77876
G1 X118.542 Y75.664 E0.8172
G1 X119.374 Y75.877 E0.84576
G1 X119.796 Y76.004 E0.86042
G1 X120.712 Y76.328 E0.89274
G1 X121.599 Y76.731 E0.92514
G1 X122.447 Y77.211 E0.95755
G1 X123.22 Y77.743 E0.98876
G1 X123.997 Y78.388 E1.02235
G1 X124.688 Y79.074 E1.05473
G1 X125.316 Y79.818 E1.08712
G1 X125.876 Y80.615 E1.11951
G1 X126.358 Y81.448 E1.15152
G1 X126.616 Y81.981 E1.17122
G1 X126.855 Y82.507 E1.19044
G1 X127.1 Y83.095 E1.21162
G1 X127.438 Y83.974 E1.24295
G1 X128.404 Y86.388 E1.32943
G1 X129.741 Y89.461 E1.44089
G1 X130.085 Y90.355 E1.47275
G1 X130.374 Y91.301 E1.50565
G1 X130.626 Y92.599 E1.54963
G1 X131.06 Y95.732 E1.65482
G1 X131.496 Y98.291 E1.74116
G1 X131.704 Y99.391 E1.7784
G1 X131.839 Y100.354 E1.81074
G1 X131.89 Y101.329 E1.84321
G1 X131.851 Y102.349 E1.87716
G1 X131.707 Y104.024 E1.93308
G1 X131.532 Y106.579 E2.01826
G1 X131.429 Y109.146 E2.10371
G1 X131.4 Y111.622 E2.18606
G1 X131.443 Y114.145 E2.26999
G1 X131.556 Y116.675 E2.35422
G1 X131.747 Y119.28 E2.4411
G1 X131.852 Y120.475 E2.481
G1 X131.891 Y121.448 E2.51339
G1 X131.85 Y122.35 E2.54342
G1 X131.71 Y123.387 E2.57822
G1 X131.492 Y124.335 E2.61057
G1 X131.19 Y125.262 E2.643
G1 X130.808 Y126.156 E2.67534
G1 X130.349 Y127.015 E2.70773
G1 X129.84 Y127.796 E2.73874
G1 X129.446 Y128.316 E2.76044
G1 X128.706 Y129.22 E2.79929
G1 X128.227 Y129.773 E2.82363
G1 X127.581 Y130.454 E2.85485
G1 X126.851 Y131.1 E2.88727
G1 X126.039 Y131.697 E2.92079
G1 X125.236 Y132.186 E2.95206
G1 X124.329 Y132.631 E2.98566
G1 X123.422 Y132.979 E3.01797
G1 X122.485 Y133.249 E3.0504
G1 X121.529 Y133.432 E3.08278
G1 X120.562 Y133.53 E3.11511
G1 X119.659 Y133.545 E3.14514
G1 X118.97 Y133.506 E3.1681
G1 X116.751 Y133.312 E3.24218
G1 X114.192 Y133.154 E3.32746
G1 X111.696 Y133.071 E3.41052
G1 X109.168 Y133.059 E3.4946
G1 X106.639 Y133.118 E3.57874
G1 X104.19 Y133.243 E3.6603
G1 X100.944 Y133.514 E3.76864
G1 X99.971 Y133.549 E3.80102
G1 X99.069 Y133.504 E3.83106
G1 X98.035 Y133.359 E3.86579
G1 X97.155 Y133.156 E3.89582
G1 X96.162 Y132.832 E3.93057
G1 X95.332 Y132.477 E3.96059
G1 X94.41 Y131.982 E3.9954
G1 X93.599 Y131.445 E4.02775
G1 X92.838 Y130.837 E4.06015
G1 X92.142 Y130.176 E4.09207
G1 X91.736 Y129.731 E4.11211
G1 X91.033 Y128.91 E4.14805
G1 X90.566 Y128.336 E4.17267
G1 X89.987 Y127.554 E4.20503
G1 X89.479 Y126.724 E4.2374
G1 X89.075 Y125.916 E4.26744
G1 X88.693 Y124.944 E4.30218
G1 X88.43 Y124.043 E4.3334
G1 X88.233 Y123.053 E4.36697
G1 X88.13 Y122.084 E4.39938
G1 X88.112 Y121.153 E4.43035
G1 X88.143 Y120.537 E4.45086
G1 X88.215 Y119.653 E4.48036
G1 X88.328 Y118.445 E4.52072
G1 X88.487 Y115.991 E4.60251
G1 X88.581 Y113.45 E4.68708
G1 X88.604 Y110.908 E4.77163
G1 X88.554 Y108.415 E4.85457
G1 X88.433 Y105.894 E4.93851
G1 X88.234 Y103.279 E5.02574
G1 X88.151 Y102.372 E5.05603
G1 X88.109 Y101.399 E5.08842
G1 X88.15 Y100.462 E5.11962
G1 X88.284 Y99.453 E5.15347
G1 X88.817 Y96.516 E5.25275
G1 X89.189 Y94.058 E5.33544
G1 X89.412 Y92.41 E5.39075
G1 X89.594 Y91.453 E5.42315
G1 X89.86 Y90.516 E5.45555
G1 X90.208 Y89.605 E5.48798
G1 X90.433 Y89.095 E5.50652
G1 X91.371 Y87.06 E5.58105
G1 X92.896 Y83.417 E5.7124
G1 X93.269 Y82.47 E5.74626
G1 X93.667 Y81.582 E5.77862
G1 X94.143 Y80.733 E5.811
G1 X94.692 Y79.928 E5.8434
G1 X95.263 Y79.229 E5.87342
G0 F6000 X95.573 Y79.482
G1 F1200 X96.254 Y78.784 E5.90586
G1 X96.966 Y78.176 E5.937
G1 X97.731 Y77.63 E5.96826
G1 X98.541 Y77.156 E5.99947
G1 X99.356 Y76.769 E6.02948
G1 X100.449 Y76.375 E6.06812
G1 X100.927 Y76.232 E6.08472
G1 X101.803 Y76.005 E6.11482
G1 X102.378 Y75.882 E6.13437
G1 X104.525 Y75.484 E6.207
G1 X105.895 Y75.2 E6.25354
G1 X106.734 Y75.037 E6.28196
G1 X107.627 Y74.904 E6.31199
G1 X108.557 Y74.847 E6.34298
G1 X109.648 Y74.829 E6.37927
G1 X110.595 Y74.828 E6.41077
G1 X111.456 Y74.84 E6.43941
G1 X112.394 Y74.897 E6.47067
G1 X113.356 Y75.043 E6.50303
G1 X115.928 Y75.556 E6.59026
G1 X117.329 Y75.817 E6.63766
G1 X118.443 Y76.051 E6.67552
G1 X119.259 Y76.26 E6.70353
G1 X119.663 Y76.381 E6.71756
G1 X120.547 Y76.692 E6.74873
G1 X121.402 Y77.079 E6.77994
G1 X122.22 Y77.541 E6.81119
G1 X122.993 Y78.073 E6.8424
G1 X123.716 Y78.672 E6.87363
G1 X124.383 Y79.332 E6.90484
G1 X124.989 Y80.048 E6.93604
G1 X125.53 Y80.816 E6.96728
G1 X125.998 Y81.623 E6.99831
G1 X126.252 Y82.146 E7.01765
G1 X126.486 Y82.661 E7.03646
G1 X126.727 Y83.238 E7.05726
G1 X127.067 Y84.123 E7.08879
G1 X128.037 Y86.548 E7.17566
G1 X129.368 Y89.605 E7.28656
G1 X129.703 Y90.473 E7.3175
G1 X129.981 Y91.377 E7.34896
G1 X130.233 Y92.675 E7.39294
G1 X130.666 Y95.799 E7.49784
G1 X131.103 Y98.365 E7.58441
G1 X131.308 Y99.447 E7.62104
G1 X131.44 Y100.375 E7.65221
G1 X131.49 Y101.314 E7.68349
G1 X131.452 Y102.315 E7.71681
G1 X131.308 Y103.99 E7.77272
G1 X131.132 Y106.563 E7.8585
G1 X131.029 Y109.13 E7.94395
G1 X131 Y111.617 E8.02667
G1 X131.043 Y114.163 E8.11136
G1 X131.156 Y116.693 E8.1956
G1 X131.348 Y119.309 E8.28284
G1 X131.452 Y120.492 E8.32234
G1 X131.491 Y121.43 E8.35356
G1 X131.45 Y122.332 E8.38359
G1 X131.32 Y123.298 E8.41601
G1 X131.111 Y124.212 E8.4472
G1 X130.822 Y125.105 E8.47842
G1 X130.455 Y125.968 E8.50961
G1 X130.014 Y126.797 E8.54084
G1 X129.521 Y127.554 E8.57088
G1 X129.127 Y128.074 E8.59258
G1 X128.403 Y128.958 E8.63059
G1 X127.936 Y129.498 E8.65433
G1 X127.316 Y130.154 E8.68435
G1 X126.586 Y130.8 E8.71678
G1 X125.831 Y131.355 E8.74794
G1 X125.028 Y131.844 E8.77921
G1 X124.185 Y132.258 E8.81045
G1 X123.311 Y132.595 E8.84161
G1 X122.409 Y132.856 E8.87284
G1 X121.488 Y133.034 E8.90404
G1 X120.555 Y133.13 E8.93523
G1 X119.652 Y133.145 E8.96527
G1 X119.005 Y133.108 E8.98682
G1 X116.776 Y132.913 E9.06124
G1 X114.205 Y132.754 E9.14692
G1 X111.709 Y132.671 E9.22998
G1 X109.161 Y132.659 E9.31473
G1 X106.63 Y132.718 E9.39893
G1 X104.157 Y132.845 E9.4813
G1 X100.929 Y133.114 E9.58903
G1 X99.991 Y133.149 E9.62025
G1 X99.089 Y133.104 E9.65029
G1 X98.125 Y132.969 E9.68266
G1 X97.245 Y132.766 E9.7127
G1 X96.319 Y132.464 E9.7451
G1 X95.489 Y132.109 E9.77512
G1 X94.63 Y131.648 E9.80755
G1 X93.848 Y131.132 E9.83871
G1 X93.113 Y130.547 E9.86995
G1 X92.437 Y129.906 E9.90094
G1 X92.04 Y129.471 E9.92053
G1 X91.343 Y128.657 E9.95617
G1 X90.887 Y128.098 E9.98016
G1 X90.328 Y127.345 E10.01135
G1 X89.837 Y126.545 E10.04257
G1 X89.433 Y125.737 E10.07262
G1 X89.077 Y124.831 E10.105
G1 X88.822 Y123.964 E10.13505
G1 X88.631 Y123.01 E10.16741
G1 X88.53 Y122.076 E10.19866
G1 X88.512 Y121.173 E10.2287
G1 X88.542 Y120.569 E10.24881
G1 X88.613 Y119.69 E10.27815
G1 X88.726 Y118.482 E10.3185
G1 X88.887 Y116.006 E10.40102
G1 X88.981 Y113.465 E10.4856
G1 X89.004 Y110.912 E10.57051
G1 X88.954 Y108.396 E10.65421
G1 X88.833 Y105.875 E10.73816
G1 X88.633 Y103.249 E10.82575
G1 X88.551 Y102.354 E10.85564
G1 X88.509 Y101.416 E10.88687
G1 X88.547 Y100.514 E10.9169
G1 X88.678 Y99.524 E10.95012
G1 X89.21 Y96.587 E11.04939
G1 X89.584 Y94.118 E11.13245
G1 X89.805 Y92.484 E11.18729
G1 X89.979 Y91.562 E11.21849
G1 X90.234 Y90.658 E11.24974
G1 X90.574 Y89.766 E11.28149
G1 X90.796 Y89.262 E11.2998
G1 X91.74 Y87.214 E11.37481
G1 X93.265 Y83.571 E11.50616
G1 X93.634 Y82.633 E11.53969
G1 X94.016 Y81.777 E11.57086
G1 X94.474 Y80.958 E11.60207
G1 X95.002 Y80.181 E11.63332
G1 X95.573 Y79.482 E11.66334
G0 F6000 X95.883 Y79.735
G1 F1200 X96.514 Y79.088 E11.6934
G1 X97.199 Y78.501 E11.7234
G1 X97.934 Y77.975 E11.75346
G1 X98.713 Y77.517 E11.78352
G1 X99.528 Y77.13 E11.81353
G1 X100.564 Y76.758 E11.85014
G1 X101.028 Y76.619 E11.86625
G1 X101.887 Y76.396 E11.89577
G1 X102.451 Y76.275 E11.91495
G1 X104.606 Y75.876 E11.98785
G1 X105.971 Y75.593 E12.03421
G1 X106.793 Y75.433 E12.06206
G1 X107.686 Y75.3 E12.09209
G1 X108.564 Y75.247 E12.12135
G1 X109.648 Y75.229 E12.15741
G1 X110.59 Y75.228 E12.18874
G1 X111.433 Y75.239 E12.21678
G1 X112.334 Y75.292 E12.2468
G1 X113.278 Y75.435 E12.27856
G1 X115.855 Y75.949 E12.36595
G1 X117.247 Y76.208 E12.41305
G1 X118.344 Y76.439 E12.45033
G1 X119.144 Y76.643 E12.47779
G1 X119.531 Y76.759 E12.49123
G1 X120.383 Y77.057 E12.52125
G1 X121.206 Y77.428 E12.55128
G1 X121.994 Y77.871 E12.58134
G1 X122.738 Y78.382 E12.61136
G1 X123.435 Y78.957 E12.64142
G1 X124.078 Y79.591 E12.67145
G1 X124.662 Y80.279 E12.70147
G1 X125.184 Y81.017 E12.73153
G1 X125.638 Y81.798 E12.76158
G1 X125.888 Y82.311 E12.78056
G1 X126.117 Y82.815 E12.79897
G1 X126.354 Y83.381 E12.81938
G1 X126.696 Y84.272 E12.85112
G1 X127.67 Y86.708 E12.93838
G1 X128.995 Y89.749 E13.04871
G1 X129.321 Y90.591 E13.07874
G1 X129.588 Y91.453 E13.10875
G1 X129.84 Y92.751 E13.15273
G1 X129.907 Y93.278 E13.1704
G1 X130.272 Y95.866 E13.25733
G1 X130.71 Y98.44 E13.34417
G1 X130.912 Y99.504 E13.38019
G1 X131.041 Y100.397 E13.4102
G1 X131.09 Y101.299 E13.44025
G1 X131.053 Y102.281 E13.47293
G1 X130.909 Y103.956 E13.52885
G1 X130.732 Y106.547 E13.61523
G1 X130.629 Y109.114 E13.70067
G1 X130.6 Y111.612 E13.78376
G1 X130.643 Y114.181 E13.86922
G1 X130.756 Y116.711 E13.95345
G1 X130.949 Y119.338 E14.04106
G1 X131.052 Y120.509 E14.08016
G1 X131.091 Y121.412 E14.11022
G1 X131.05 Y122.314 E14.14025
G1 X130.93 Y123.209 E14.17029
G1 X130.73 Y124.09 E14.20034
G1 X130.454 Y124.949 E14.23034
G1 X130.102 Y125.781 E14.26039
G1 X129.679 Y126.579 E14.29043
G1 X129.186 Y127.336 E14.32048
G1 X128.817 Y127.821 E14.34075
G1 X128.101 Y128.696 E14.37835
G1 X127.645 Y129.223 E14.40153
G1 X127.025 Y129.879 E14.43155
G1 X126.349 Y130.478 E14.46159
G1 X125.622 Y131.014 E14.49163
G1 X124.851 Y131.485 E14.52168
G1 X124.041 Y131.885 E14.55173
G1 X123.199 Y132.211 E14.58176
G1 X122.332 Y132.463 E14.61179
G1 X121.446 Y132.636 E14.64182
G1 X120.548 Y132.73 E14.67185
G1 X119.645 Y132.745 E14.70189
G1 X119.04 Y132.71 E14.72204
G1 X116.801 Y132.514 E14.7968
G1 X114.218 Y132.354 E14.88287
G1 X111.722 Y132.271 E14.96593
G1 X109.154 Y132.259 E15.05135
G1 X106.621 Y132.318 E15.13562
G1 X104.124 Y132.447 E15.21878
G1 X100.914 Y132.714 E15.32591
G1 X100.011 Y132.749 E15.35597
G1 X99.109 Y132.704 E15.38601
G1 X98.215 Y132.579 E15.41603
G1 X97.335 Y132.376 E15.44607
G1 X96.476 Y132.096 E15.47612
G1 X95.646 Y131.741 E15.50614
G1 X94.85 Y131.314 E15.53619
G1 X94.096 Y130.818 E15.56621
G1 X93.388 Y130.257 E15.59625
G1 X92.732 Y129.636 E15.62629
G1 X92.344 Y129.211 E15.64543
G1 X91.653 Y128.404 E15.68077
G1 X91.208 Y127.859 E15.70417
G1 X90.669 Y127.135 E15.73419
G1 X90.195 Y126.366 E15.76424
G1 X89.791 Y125.558 E15.79429
G1 X89.461 Y124.718 E15.8243
G1 X89.206 Y123.851 E15.85436
G1 X89.029 Y122.966 E15.88438
G1 X88.93 Y122.068 E15.91443
G1 X88.912 Y121.165 E15.94447
G1 X88.941 Y120.601 E15.96325
G1 X89.011 Y119.727 E15.99241
G1 X89.124 Y118.519 E16.03277
G1 X89.287 Y116.021 E16.11603
G1 X89.381 Y113.48 E16.2006
G1 X89.404 Y110.916 E16.28588
G1 X89.354 Y108.377 E16.37035
G1 X89.233 Y105.856 E16.45429
G1 X89.031 Y103.218 E16.54229
G1 X88.951 Y102.335 E16.57178
G1 X88.909 Y101.433 E16.60181
G1 X88.947 Y100.531 E16.63184
G1 X89.072 Y99.595 E16.66324
G1 X89.604 Y96.658 E16.76252
G1 X89.979 Y94.178 E16.84594
G1 X90.198 Y92.558 E16.90031
G1 X90.364 Y91.67 E16.93036
G1 X90.608 Y90.8 E16.96041
G1 X90.94 Y89.927 E16.99148
G1 X91.159 Y89.429 E17.00957
G1 X92.109 Y87.368 E17.08505
G1 X93.634 Y83.725 E17.21641
G1 X93.999 Y82.796 E17.24961
G1 X94.366 Y81.971 E17.27964
G1 X94.805 Y81.182 E17.30967
G1 X95.312 Y80.434 E17.33972
G1 X95.883 Y79.735 E17.36974
G1 F1500 E10.86974
G0 F6000 X103.769 Y86.722
G1 F1500 E17.36974
G1 F1200 X103.907 Y86.722 E17.37433
G1 X104.026 Y86.683 E17.3785
G1 X104.08 Y86.606 E17.38163
G1 X104.344 Y86.606 E17.39041
G1 X104.463 Y86.567 E17.39457
G1 X104.516 Y86.492 E17.39763
G1 X104.851 Y86.484 E17.40877
G1 X104.871 Y86.482 E17.40944
G1 X105.122 Y86.451 E17.41785
G1 X105.234 Y86.398 E17.42197
G1 X105.249 Y86.37 E17.42303
G1 X105.526 Y86.37 E17.43224
G1 X105.575 Y86.364 E17.43389
G1 X105.76 Y86.317 E17.44023
G1 X105.866 Y86.25 E17.4444
G1 X105.868 Y86.241 E17.44471
G1 X106.735 Y86.14 E17.47374
G1 X106.746 Y86.138 E17.47411
G1 X107.296 Y86.042 E17.49268
G1 X107.307 Y86.04 E17.49306
G1 X107.784 Y85.929 E17.50935
G1 X107.795 Y85.926 E17.50972
G1 X108.807 Y85.629 E17.5448
G1 X111.256 Y85.628 E17.62626
G1 X112.049 Y85.89 E17.65403
G1 X112.062 Y85.894 E17.65449
G1 X112.985 Y86.131 E17.68618
G1 X113 Y86.134 E17.68669
G1 X113.524 Y86.227 E17.70439
G1 X113.537 Y86.229 E17.70483
G1 X114.297 Y86.315 E17.73027
G1 X114.304 Y86.315 E17.7305
G1 X114.883 Y86.358 E17.74981
G1 X114.944 Y86.449 E17.75346
G1 X115.067 Y86.491 E17.75778
G1 X115.395 Y86.491 E17.76869
G1 X115.446 Y86.565 E17.77168
G1 X115.567 Y86.606 E17.77593
G1 X115.996 Y86.606 E17.79019
G1 X116.031 Y86.669 E17.79259
G1 X116.166 Y86.721 E17.7974
G1 X116.383 Y86.721 E17.80462
G1 X116.418 Y86.784 E17.80702
G1 X116.502 Y86.817 E17.81002
G1 X116.597 Y86.995 E17.81673
G1 X116.027 Y87.864 E17.8513
G1 X116.021 Y87.874 E17.85168
G1 X115.762 Y88.323 E17.86892
G1 X115.757 Y88.332 E17.86927
G1 X115.546 Y88.744 E17.88466
G1 X115.538 Y88.75 E17.885
G1 X115.484 Y88.854 E17.88889
G1 X115.38 Y89.055 E17.89642
G1 X115.378 Y89.202 E17.90131
G1 X114.953 Y89.515 E17.91886
G1 X114.609 Y89.512 E17.93031
G1 X113.311 Y89.242 E17.9744
G1 X113.301 Y89.24 E17.97474
G1 X111.672 Y88.982 E18.0296
G1 X111.66 Y88.981 E18.03
G1 X111.176 Y88.934 E18.04617
G1 X111.165 Y88.933 E18.04654
G1 X109.859 Y88.883 E18.09001
G1 X109.846 Y88.883 E18.09044
G1 X109.337 Y88.896 E18.10738
G1 X109.327 Y88.897 E18.10771
G1 X107.979 Y88.997 E18.15267
G1 X107.957 Y88.999 E18.1534
G1 X106.904 Y89.195 E18.18903
G1 X106.895 Y89.197 E18.18933
G1 X105.883 Y89.434 E18.2239
G1 X105.877 Y89.436 E18.22411
G1 X105.152 Y89.63 E18.24908
G1 X104.642 Y89.63 E18.26604
G1 X104.542 Y89.454 E18.27277
G1 X104.553 Y89.366 E18.27572
G1 X104.499 Y89.169 E18.28252
G1 X104.504 Y89.127 E18.28392
G1 X104.289 Y88.257 E18.31373
G1 X104.286 Y88.246 E18.31411
G1 X104.108 Y87.665 E18.33432
G1 X104.105 Y87.656 E18.33463
G1 X103.769 Y86.722 E18.36765
G0 F6000 X104.295 Y87.006
G1 F1200 X104.344 Y87.006 E18.36928
G1 X104.559 Y86.966 E18.37655
G1 X104.687 Y86.888 E18.38154
G1 X104.86 Y86.884 E18.38729
G1 X104.92 Y86.879 E18.3893
G1 X105.171 Y86.848 E18.39771
G1 X105.379 Y86.783 E18.40496
G1 X105.395 Y86.77 E18.40564
G1 X105.526 Y86.77 E18.41
G1 X105.674 Y86.752 E18.41496
G1 X105.859 Y86.705 E18.42131
G1 X106.032 Y86.625 E18.42764
G1 X106.782 Y86.537 E18.45276
G1 X106.815 Y86.532 E18.45387
G1 X107.365 Y86.436 E18.47244
G1 X107.398 Y86.429 E18.47356
G1 X107.875 Y86.318 E18.48985
G1 X107.908 Y86.31 E18.49098
G1 X108.865 Y86.029 E18.52415
