;FLAVOR:Marlin
;TIME:7552
;Filament used: 4.32859m
;Layer height: 0.2
;MINX:86.784
;MINY:84.073
;MINZ:0.2
;MAXX:161.716
;MAXY:135.927
;MAXZ:18.4
;TARGET_MACHINE.NAME:Creality Ender-3 Pro
;Generated with Cura_SteamEngine 5.6.0
M82 ;absolute extrusion mode
; Ender 3 Custom Start G-code
G92 E0 ; Reset Extruder
G28 ; Home all axes
G1 Z5.0 F3000 ; Move Z Axis up a bit during heating to not damage bed
M104 S175 ; Start heating up the nozzle most of the way
M190 S60 ; Start heating the bed, wait until target temperature reached
M109 S200 ; Finish heating the nozzle
G1 Z2.0 F3000 ; Move Z Axis up little to prevent scratching of Heat Bed
G1 X0.1 Y20 Z0.3 F5000.0 ; Move to start position
G1 X0.1 Y200.0 Z0.3 F1500.0 E15 ; Draw the first line
G1 X0.4 Y200.0 Z0.3 F5000.0 ; Move to side a little
G1 X0.4 Y20 Z0.3 F1500.0 E30 ; Draw the second line
G92 E0 ; Reset Extruder
G1 Z2.0 F3000 ; Move Z Axis up little to prevent scratching of Heat Bed
G1 X5 Y20 Z0.3 F5000.0 ; Move over to prevent blob squish
G92 E0
G92 E0
G1 F1500 E-6.5
;LAYER_COUNT:92
;LAYER:0
M107
G0 F6000 X89.803 Y87.096 Z0.2
;TYPE:SKIRT
G1 F1500 E0
G1 F1200 X91.364 Y85.637 E0.07107
G1 X93.387 Y84.43 E0.14942
G1 X95.105 Y84.148 E0.20732
G1 X124.802 Y84.073 E1.19505
G1 X125.146 Y84.158 E1.20684
G1 X125.464 Y84.117 E1.2175
G1 X154.768 Y84.073 E2.19216
G1 X156.664 Y84.539 E2.2571
G1 X158.692 Y85.592 E2.3331
G1 X160.151 Y87.153 E2.40416
G1 X161.358 Y89.176 E2.48252
G1 X161.64 Y90.894 E2.54042
G1 X161.716 Y128.98 E3.80717
G1 X161.25 Y130.876 E3.87211
G1 X160.197 Y132.904 E3.94811
G1 X158.636 Y134.363 E4.01918
G1 X156.613 Y135.57 E4.09753
G1 X154.895 Y135.852 E4.15543
G1 X125.198 Y135.927 E5.14316
G1 X124.854 Y135.842 E5.15495
G1 X124.536 Y135.883 E5.16561
G1 X95.232 Y135.927 E6.14027
G1 X93.336 Y135.461 E6.20521
G1 X91.308 Y134.408 E6.28121
G1 X89.849 Y132.847 E6.35227
G1 X88.642 Y130.824 E6.43063
G1 X88.36 Y129.106 E6.48853
G1 X88.29 Y116.057 E6.92255
G1 X87.702 Y115.301 E6.9544
G1 X86.784 Y112.778 E7.0437
G1 X86.784 Y107.641 E7.21456
G1 X87.246 Y105.761 E7.27895
G1 X88.181 Y103.95 E7.34674
G1 X88.284 Y103.806 E7.35263
G1 X88.284 Y91.02 E7.77789
G1 X88.75 Y89.124 E7.84283
G1 X89.803 Y87.096 E7.91883
G0 F6000 X90.126 Y87.341
G1 F1200 X91.603 Y85.961 E7.98606
G1 X93.527 Y84.813 E8.06058
G1 X95.17 Y84.543 E8.11596
G1 X124.754 Y84.473 E9.09993
G1 X125.124 Y84.565 E9.11261
G1 X125.516 Y84.514 E9.12576
G1 X154.722 Y84.473 E10.09715
G1 X156.521 Y84.915 E10.15877
G1 X158.447 Y85.915 E10.23095
G1 X159.827 Y87.392 E10.29818
G1 X160.975 Y89.316 E10.3727
G1 X161.245 Y90.959 E10.42808
G1 X161.316 Y128.934 E11.69113
G1 X160.874 Y130.733 E11.75275
G1 X159.874 Y132.659 E11.82492
G1 X158.397 Y134.039 E11.89216
G1 X156.473 Y135.187 E11.96667
G1 X154.83 Y135.457 E12.02205
G1 X125.246 Y135.527 E13.00602
G1 X124.876 Y135.435 E13.0187
G1 X124.484 Y135.486 E13.03185
G1 X95.278 Y135.527 E14.00325
G1 X93.479 Y135.085 E14.06486
G1 X91.553 Y134.085 E14.13704
G1 X90.173 Y132.608 E14.20427
G1 X89.025 Y130.684 E14.27879
G1 X88.755 Y129.041 E14.33417
G1 X88.689 Y115.918 E14.77065
G1 X88.056 Y115.104 E14.80495
G1 X87.184 Y112.707 E14.88978
G1 X87.184 Y107.687 E15.05675
G1 X87.622 Y105.904 E15.11781
G1 X88.536 Y104.134 E15.18407
G1 X88.684 Y103.944 E15.19208
G1 X88.684 Y91.066 E15.6204
G1 X89.126 Y89.267 E15.68202
G1 X90.126 Y87.341 E15.7542
G0 F6000 X90.449 Y87.586
G1 F1200 X91.845 Y86.282 E15.81773
G1 X93.665 Y85.196 E15.88823
G1 X95.235 Y84.938 E15.94114
G1 X124.706 Y84.873 E16.92136
G1 X125.102 Y84.972 E16.93493
G1 X125.568 Y84.911 E16.95056
G1 X154.675 Y84.873 E17.91867
G1 X156.379 Y85.292 E17.97703
G1 X158.202 Y86.238 E18.04534
G1 X159.506 Y87.634 E18.10888
G1 X160.592 Y89.454 E18.17937
G1 X160.85 Y91.024 E18.23229
G1 X160.916 Y128.887 E19.49162
G1 X160.497 Y130.591 E19.54998
G1 X159.551 Y132.414 E19.61829
G1 X158.155 Y133.718 E19.68183
G1 X156.335 Y134.804 E19.75232
G1 X154.765 Y135.062 E19.80524
G1 X125.294 Y135.127 E20.78545
G1 X124.898 Y135.028 E20.79903
G1 X124.432 Y135.089 E20.81466
G1 X95.325 Y135.127 E21.78276
G1 X93.621 Y134.708 E21.84113
G1 X91.798 Y133.762 E21.90944
G1 X90.494 Y132.366 E21.97297
G1 X89.408 Y130.546 E22.04346
G1 X89.15 Y128.976 E22.09638
G1 X89.088 Y115.779 E22.53532
G1 X88.41 Y114.907 E22.57206
G1 X87.584 Y112.636 E22.65244
G1 X87.584 Y107.733 E22.81551
G1 X87.998 Y106.047 E22.87325
G1 X88.891 Y104.318 E22.93798
G1 X89.084 Y104.091 E22.94789
G1 X89.084 Y91.113 E23.37954
G1 X89.503 Y89.409 E23.4379
G1 X90.449 Y87.586 E23.50621
G0 F6000 X90.772 Y87.831
G1 F1200 X92.087 Y86.603 E23.56605
G1 X93.803 Y85.579 E23.63252
G1 X95.3 Y85.333 E23.68298
G1 X124.657 Y85.273 E24.6594
G1 X125.08 Y85.379 E24.6739
G1 X125.569 Y85.311 E24.69032
G1 X154.629 Y85.273 E25.65686
G1 X156.236 Y85.668 E25.7119
G1 X157.957 Y86.561 E25.77639
G1 X159.185 Y87.876 E25.83623
G1 X160.209 Y89.592 E25.90269
G1 X160.455 Y91.089 E25.95315
G1 X160.516 Y128.841 E27.20879
G1 X160.121 Y130.448 E27.26383
G1 X159.228 Y132.169 E27.32832
G1 X157.913 Y133.397 E27.38816
G1 X156.197 Y134.421 E27.45463
G1 X154.7 Y134.667 E27.50508
G1 X125.343 Y134.727 E28.4815
G1 X124.92 Y134.621 E28.49601
G1 X124.431 Y134.689 E28.51243
G1 X95.371 Y134.727 E29.47897
G1 X93.764 Y134.332 E29.53401
G1 X92.043 Y133.439 E29.5985
G1 X90.815 Y132.124 E29.65834
G1 X89.791 Y130.408 E29.7248
G1 X89.545 Y128.911 E29.77526
G1 X89.487 Y115.641 E30.21663
G1 X88.765 Y114.712 E30.25576
G1 X87.984 Y112.565 E30.33175
G1 X87.984 Y107.779 E30.49093
G1 X88.374 Y106.19 E30.54535
G1 X89.246 Y104.502 E30.60854
G1 X89.484 Y104.249 E30.62009
G1 X89.484 Y91.159 E31.05547
G1 X89.879 Y89.552 E31.11051
G1 X90.772 Y87.831 E31.175
G0 F6000 X91.095 Y88.076
G1 F1200 X92.329 Y86.924 E31.23114
G1 X93.941 Y85.962 E31.29358
G1 X95.365 Y85.728 E31.34158
G1 X124.608 Y85.673 E32.31421
G1 X125.061 Y85.786 E32.32974
G1 X125.57 Y85.711 E32.34685
G1 X154.583 Y85.673 E33.31183
G1 X156.093 Y86.044 E33.36354
G1 X157.712 Y86.884 E33.42421
G1 X158.864 Y88.118 E33.48035
G1 X159.826 Y89.73 E33.54279
G1 X160.06 Y91.154 E33.59079
G1 X160.116 Y128.795 E34.84273
G1 X159.745 Y130.305 E34.89445
G1 X158.905 Y131.924 E34.95512
G1 X157.671 Y133.076 E35.01126
G1 X156.059 Y134.038 E35.0737
G1 X154.635 Y134.272 E35.1217
G1 X125.392 Y134.327 E36.09433
G1 X124.939 Y134.214 E36.10985
G1 X124.43 Y134.289 E36.12697
G1 X95.417 Y134.327 E37.09194
G1 X93.907 Y133.956 E37.14366
G1 X92.288 Y133.116 E37.20433
G1 X91.136 Y131.882 E37.26047
G1 X90.174 Y130.27 E37.32291
G1 X89.94 Y128.846 E37.37091
G1 X89.886 Y115.504 E37.81467
G1 X89.12 Y114.517 E37.85622
G1 X88.384 Y112.494 E37.92782
G1 X88.384 Y107.825 E38.08311
G1 X88.75 Y106.333 E38.13421
G1 X89.601 Y104.686 E38.19587
G1 X89.884 Y104.423 E38.20872
G1 X89.884 Y91.205 E38.64835
G1 X90.255 Y89.695 E38.70007
G1 X91.095 Y88.076 E38.76073
G0 F6000 X91.418 Y88.321
G1 F1200 X92.571 Y87.245 E38.81319
G1 X94.079 Y86.345 E38.8716
G1 X95.43 Y86.123 E38.91713
G1 X124.559 Y86.073 E39.88597
G1 X125.042 Y86.194 E39.90253
G1 X125.629 Y86.107 E39.92227
G1 X154.536 Y86.073 E40.88372
G1 X155.951 Y86.421 E40.93218
G1 X157.467 Y87.207 E40.98898
G1 X158.543 Y88.36 E41.04143
G1 X159.443 Y89.868 E41.09984
G1 X159.665 Y91.219 E41.14538
G1 X159.716 Y128.748 E42.3936
G1 X159.368 Y130.163 E42.44207
G1 X158.582 Y131.679 E42.49886
G1 X157.429 Y132.755 E42.55132
G1 X155.921 Y133.655 E42.60973
G1 X154.57 Y133.877 E42.65526
G1 X125.441 Y133.927 E43.6241
G1 X124.958 Y133.806 E43.64066
G1 X124.371 Y133.893 E43.6604
G1 X95.464 Y133.927 E44.62185
G1 X94.049 Y133.579 E44.67032
G1 X92.533 Y132.793 E44.72711
G1 X91.457 Y131.64 E44.77957
G1 X90.557 Y130.132 E44.83798
G1 X90.335 Y128.781 E44.88351
G1 X90.285 Y115.367 E45.32967
G1 X89.475 Y114.322 E45.37364
G1 X88.784 Y112.423 E45.44086
G1 X88.784 Y107.871 E45.59226
G1 X89.126 Y106.476 E45.64003
G1 X89.923 Y104.933 E45.69779
G1 X90.284 Y104.599 E45.71415
G1 X90.284 Y91.252 E46.15807
G1 X90.632 Y89.837 E46.20654
G1 X91.418 Y88.321 E46.26333
G0 F6000 X91.741 Y88.566
G1 F1200 X92.813 Y87.566 E46.31209
G1 X94.217 Y86.728 E46.36647
G1 X95.495 Y86.518 E46.40955
G1 X124.509 Y86.473 E47.37456
G1 X125.022 Y86.602 E47.39216
G1 X125.688 Y86.503 E47.41455
G1 X154.49 Y86.473 E48.37251
G1 X155.808 Y86.797 E48.41765
G1 X157.222 Y87.53 E48.47062
G1 X158.222 Y88.602 E48.51938
G1 X159.06 Y90.006 E48.57377
G1 X159.27 Y91.284 E48.61684
G1 X159.316 Y128.702 E49.86137
G1 X158.992 Y130.02 E49.90651
G1 X158.259 Y131.434 E49.95949
G1 X157.187 Y132.434 E50.00825
G1 X155.783 Y133.272 E50.06263
G1 X154.505 Y133.482 E50.10571
G1 X125.491 Y133.527 E51.07072
G1 X124.978 Y133.398 E51.08831
G1 X124.312 Y133.497 E51.11071
G1 X95.51 Y133.527 E52.06866
G1 X94.192 Y133.203 E52.11381
G1 X92.778 Y132.47 E52.16678
G1 X91.778 Y131.398 E52.21554
G1 X90.94 Y129.994 E52.26992
G1 X90.73 Y128.716 E52.313
G1 X90.685 Y115.23 E52.76155
G1 X89.83 Y114.127 E52.80796
G1 X89.184 Y112.352 E52.87079
G1 X89.184 Y107.921 E53.01816
G1 X89.504 Y106.615 E53.06289
G1 X90.246 Y105.179 E53.11665
G1 X90.684 Y104.773 E53.13651
G1 X90.684 Y91.298 E53.58469
G1 X91.008 Y89.98 E53.62983
G1 X91.741 Y88.566 E53.68281
G0 F6000 X92.063 Y88.813
G1 F1200 X93.058 Y87.885 E53.72806
G1 X94.355 Y87.111 E53.7783
G1 X95.56 Y86.913 E53.81891
G1 X124.46 Y86.873 E54.78013
G1 X125.003 Y87.009 E54.79875
G1 X125.688 Y86.903 E54.8218
G1 X154.444 Y86.873 E55.77823
G1 X155.665 Y87.173 E55.82005
G1 X156.975 Y87.852 E55.86913
G1 X157.903 Y88.847 E55.91438
G1 X158.677 Y90.144 E55.96462
G1 X158.875 Y91.349 E56.00523
G1 X158.916 Y128.656 E57.24607
G1 X158.616 Y129.877 E57.28789
G1 X157.937 Y131.187 E57.33696
G1 X156.942 Y132.115 E57.38222
G1 X155.645 Y132.889 E57.43245
G1 X154.44 Y133.087 E57.47307
G1 X125.54 Y133.127 E58.43429
G1 X124.997 Y132.991 E58.45291
G1 X124.312 Y133.097 E58.47596
G1 X95.556 Y133.127 E59.43239
G1 X94.335 Y132.827 E59.47421
G1 X93.025 Y132.148 E59.52328
G1 X92.097 Y131.153 E59.56854
G1 X91.323 Y129.856 E59.61877
G1 X91.125 Y128.651 E59.65939
G1 X91.085 Y115.093 E60.11033
G1 X90.185 Y113.932 E60.15919
G1 X89.584 Y112.281 E60.21763
G1 X89.584 Y107.967 E60.36111
G1 X89.881 Y106.756 E60.40258
G1 X90.567 Y105.427 E60.45233
G1 X91.084 Y104.949 E60.47575
G1 X91.084 Y91.344 E60.92825
G1 X91.384 Y90.123 E60.97007
G1 X92.063 Y88.813 E61.01914
G0 F6000 X92.385 Y89.06
G1 F1200 X93.3 Y88.207 E61.06075
G1 X94.495 Y87.494 E61.10703
G1 X95.625 Y87.308 E61.14512
G1 X124.411 Y87.273 E62.10255
G1 X124.986 Y87.417 E62.12227
G1 X125.688 Y87.303 E62.14592
G1 X154.398 Y87.273 E63.10082
G1 X155.522 Y87.549 E63.13931
G1 X156.728 Y88.174 E63.18449
G1 X157.581 Y89.089 E63.2261
G1 X158.294 Y90.284 E63.27238
G1 X158.48 Y91.414 E63.31047
G1 X158.516 Y128.61 E64.54762
G1 X158.24 Y129.734 E64.58611
G1 X157.615 Y130.94 E64.63129
G1 X156.7 Y131.793 E64.6729
G1 X155.505 Y132.506 E64.71918
G1 X154.375 Y132.692 E64.75727
G1 X125.589 Y132.727 E65.71469
G1 X125.014 Y132.583 E65.73441
G1 X124.312 Y132.697 E65.75806
G1 X95.602 Y132.727 E66.71296
G1 X94.478 Y132.451 E66.75146
G1 X93.272 Y131.826 E66.79664
G1 X92.419 Y130.911 E66.83824
G1 X91.706 Y129.716 E66.88453
G1 X91.52 Y128.586 E66.92262
G1 X91.485 Y114.928 E67.37688
G1 X91.394 Y114.84 E67.38109
G1 X90.54 Y113.737 E67.42749
G1 X89.984 Y112.21 E67.48154
G1 X89.984 Y108.017 E67.621
G1 X90.259 Y106.895 E67.65942
G1 X90.889 Y105.675 E67.70509
G1 X91.484 Y105.125 E67.73204
G1 X91.484 Y91.39 E68.18887
G1 X91.76 Y90.266 E68.22736
G1 X92.385 Y89.06 E68.27254
G0 F6000 X92.707 Y89.307
G1 F1200 X93.542 Y88.529 E68.3105
G1 X94.635 Y87.877 E68.35283
G1 X95.69 Y87.703 E68.38839
G1 X124.362 Y87.673 E69.34203
G1 X124.97 Y87.825 E69.36287
G1 X125.688 Y87.703 E69.3871
G1 X154.351 Y87.673 E70.34043
G1 X155.38 Y87.926 E70.37568
G1 X156.481 Y88.496 E70.41691
G1 X157.259 Y89.331 E70.45487
G1 X157.911 Y90.424 E70.4972
G1 X158.085 Y91.479 E70.53277
G1 X158.116 Y128.563 E71.76618
G1 X157.863 Y129.592 E71.80143
G1 X157.293 Y130.693 E71.84266
G1 X156.458 Y131.471 E71.88062
G1 X155.365 Y132.123 E71.92295
G1 X154.31 Y132.297 E71.95852
G1 X125.638 Y132.327 E72.91215
G1 X125.03 Y132.175 E72.933
G1 X124.312 Y132.297 E72.95722
G1 X95.649 Y132.327 E73.91056
G1 X94.62 Y132.074 E73.9458
G1 X93.519 Y131.504 E73.98704
G1 X92.741 Y130.669 E74.02499
G1 X92.089 Y129.576 E74.06732
G1 X91.915 Y128.521 E74.10289
G1 X91.885 Y114.74 E74.56125
G1 X91.71 Y114.595 E74.56881
G1 X90.895 Y113.542 E74.61309
G1 X90.384 Y112.139 E74.66276
G1 X90.384 Y108.063 E74.79832
G1 X90.636 Y107.036 E74.8335
G1 X91.21 Y105.924 E74.87512
G1 X91.884 Y105.301 E74.90564
G1 X91.884 Y91.437 E75.36676
G1 X92.137 Y90.408 E75.40201
G1 X92.707 Y89.307 E75.44324
G0 F6000 X93.029 Y89.554
G1 F1200 X93.784 Y88.851 E75.47756
G1 X94.775 Y88.26 E75.51593
G1 X95.755 Y88.098 E75.54897
G1 X124.313 Y88.073 E76.49881
G1 X124.975 Y88.238 E76.5215
G1 X125.068 Y88.212 E76.52472
G1 X125.754 Y88.098 E76.54785
G1 X154.305 Y88.073 E77.49746
G1 X155.237 Y88.302 E77.52938
G1 X156.234 Y88.818 E77.56671
G1 X156.937 Y89.573 E77.60103
G1 X157.528 Y90.564 E77.6394
G1 X157.69 Y91.544 E77.67244
G1 X157.716 Y128.517 E78.90217
G1 X157.487 Y129.449 E78.93409
G1 X156.971 Y130.446 E78.97143
G1 X156.216 Y131.149 E79.00574
G1 X155.225 Y131.74 E79.04412
G1 X154.245 Y131.902 E79.07715
G1 X125.687 Y131.927 E80.027
G1 X125.025 Y131.762 E80.04969
G1 X124.932 Y131.788 E80.0529
G1 X124.246 Y131.902 E80.07603
G1 X95.695 Y131.927 E81.02564
G1 X94.763 Y131.698 E81.05756
G1 X93.766 Y131.182 E81.0949
G1 X93.063 Y130.427 E81.12921
G1 X92.472 Y129.436 E81.16759
G1 X92.31 Y128.456 E81.20062
G1 X92.285 Y114.535 E81.66364
G1 X92.026 Y114.35 E81.67423
G1 X91.25 Y113.347 E81.7164
G1 X90.784 Y112.068 E81.76168
G1 X90.784 Y108.109 E81.89336
G1 X91.012 Y107.179 E81.9252
G1 X91.533 Y106.17 E81.96297
G1 X92.284 Y105.476 E81.99698
G1 X92.284 Y91.483 E82.46239
G1 X92.513 Y90.551 E82.49431
G1 X93.029 Y89.554 E82.53165
G0 F6000 X93.352 Y89.799
G1 F1200 X94.023 Y89.175 E82.56213
G1 X94.915 Y88.643 E82.59667
G1 X95.82 Y88.493 E82.62718
G1 X124.264 Y88.473 E83.57324
G1 X124.992 Y88.654 E83.59819
G1 X125.134 Y88.607 E83.60316
G1 X125.82 Y88.493 E83.62629
G1 X154.259 Y88.473 E84.57218
G1 X155.094 Y88.678 E84.60077
G1 X155.989 Y89.141 E84.63429
G1 X156.613 Y89.812 E84.66476
G1 X157.145 Y90.704 E84.69931
G1 X157.295 Y91.609 E84.72982
G1 X157.316 Y128.471 E85.95585
G1 X157.111 Y129.306 E85.98445
G1 X156.648 Y130.201 E86.01797
G1 X155.977 Y130.825 E86.04844
G1 X155.085 Y131.357 E86.08299
G1 X154.18 Y131.507 E86.1135
G1 X125.736 Y131.527 E87.05955
G1 X125.008 Y131.346 E87.0845
G1 X124.866 Y131.393 E87.08948
G1 X124.18 Y131.507 E87.1126
G1 X95.741 Y131.527 E88.05849
G1 X94.906 Y131.322 E88.08709
G1 X94.011 Y130.859 E88.1206
G1 X93.387 Y130.188 E88.15108
G1 X92.855 Y129.296 E88.18562
G1 X92.705 Y128.391 E88.21613
G1 X92.685 Y114.304 E88.68467
G1 X92.342 Y114.105 E88.69786
G1 X91.605 Y113.152 E88.73793
G1 X91.184 Y111.997 E88.77882
G1 X91.184 Y108.155 E88.9066
G1 X91.389 Y107.32 E88.9352
G1 X91.854 Y106.419 E88.96892
G1 X92.49 Y105.831 E88.99773
G1 X92.684 Y105.708 E89.00537
G1 X92.684 Y91.529 E89.47697
G1 X92.889 Y90.694 E89.50556
G1 X93.352 Y89.799 E89.53908
G0 F6000 X93.675 Y90.044
G1 F1200 X94.262 Y89.499 E89.56572
G1 X95.055 Y89.026 E89.59643
G1 X95.886 Y88.888 E89.62445
G1 X124.213 Y88.873 E90.56661
G1 X124.863 Y89.032 E90.58886
G1 X124.994 Y89.084 E90.59355
G1 X125.2 Y89.002 E90.60093
G1 X125.886 Y88.888 E90.62406
G1 X154.213 Y88.873 E91.56622
G1 X154.951 Y89.054 E91.59149
G1 X155.744 Y89.464 E91.62118
G1 X156.289 Y90.051 E91.64782
G1 X156.762 Y90.844 E91.67853
G1 X156.9 Y91.675 E91.70655
G1 X156.916 Y128.425 E92.92886
G1 X156.735 Y129.163 E92.95413
G1 X156.325 Y129.956 E92.98383
G1 X155.738 Y130.501 E93.01047
G1 X154.945 Y130.974 E93.04118
G1 X154.114 Y131.112 E93.0692
G1 X125.787 Y131.127 E94.01136
G1 X125.137 Y130.968 E94.03361
G1 X125.006 Y130.916 E94.0383
G1 X124.8 Y130.998 E94.04567
G1 X124.114 Y131.112 E94.0688
G1 X95.787 Y131.127 E95.01096
G1 X95.049 Y130.946 E95.03624
G1 X94.256 Y130.536 E95.06593
G1 X93.711 Y129.949 E95.09257
G1 X93.238 Y129.156 E95.12328
G1 X93.1 Y128.325 E95.1513
G1 X93.085 Y114.073 E95.62532
G1 X92.612 Y113.8 E95.64349
G1 X91.959 Y112.955 E95.67901
G1 X91.584 Y111.926 E95.71543
