;FLAVOR:Marlin
;TIME:5598
;Filament used: 2.98763m
;Layer height: 0.2
;MINX:111.616
;MINY:86.607
;MINZ:0.2
;MAXX:155.398
;MAXY:151.607
;MAXZ:21.4
;TARGET_MACHINE.NAME:Creality Ender-3 Pro
;Generated with Cura_SteamEngine 5.6.0
M82 ;absolute extrusion mode
; Ender 3 Custom Start G-code
G92 E0 ; Reset Extruder
G28 ; Home all axes
G1 Z5.0 F3000 ; Move Z Axis up a bit during heating to not damage bed
M104 S175 ; Start heating up the nozzle most of the way
M190 S60 ; Start heating the bed, wait until target temperature reached
M109 S200 ; Finish heating the nozzle
G1 Z2.0 F3000 ; Move Z Axis up little to prevent scratching of Heat Bed
G1 X0.1 Y20 Z0.3 F5000.0 ; Move to start position
G1 X0.1 Y200.0 Z0.3 F1500.0 E15 ; Draw the first line
G1 X0.4 Y200.0 Z0.3 F5000.0 ; Move to side a little
G1 X0.4 Y20 Z0.3 F1500.0 E30 ; Draw the second line
G92 E0 ; Reset Extruder
G1 Z2.0 F3000 ; Move Z Axis up little to prevent scratching of Heat Bed
G1 X5 Y20 Z0.3 F5000.0 ; Move over to prevent blob squish
G92 E0
G92 E0
G1 F1500 E-6.5
;LAYER_COUNT:107
;LAYER:0
M107
G0 F6000 X116.813 Y90.807 Z0.2
;TYPE:SKIRT
G1 F1500 E0
G1 F1200 X117.449 Y90.068 E0.03243
G1 X118.147 Y89.388 E0.06484
G1 X118.903 Y88.774 E0.09723
G1 X119.708 Y88.229 E0.12957
G1 X120.529 Y87.772 E0.16082
G1 X121.451 Y87.362 E0.19438
G1 X122.372 Y87.048 E0.22674
G1 X123.318 Y86.816 E0.25914
G1 X124.281 Y86.669 E0.29154
G1 X125.245 Y86.607 E0.32367
G1 X126.002 Y86.618 E0.34885
G1 X126.808 Y86.659 E0.37569
G1 X130.445 Y86.903 E0.49693
G1 X131.537 Y86.998 E0.53339
G1 X133.094 Y87.177 E0.58552
G1 X135.685 Y87.425 E0.67209
G1 X137.166 Y87.533 E0.72148
G1 X140.493 Y87.753 E0.83237
G1 X141.716 Y87.861 E0.87321
G1 X144.244 Y88.17 E0.95792
G1 X145.19 Y88.273 E0.98957
G1 X146.168 Y88.427 E1.0225
G1 X147.112 Y88.66 E1.05484
G1 X147.967 Y88.952 E1.08489
G1 X148.923 Y89.378 E1.1197
G1 X149.773 Y89.853 E1.15208
G1 X150.578 Y90.401 E1.18447
G1 X151.331 Y91.018 E1.21685
G1 X152.026 Y91.7 E1.24924
G1 X152.658 Y92.44 E1.2816
G1 X153.224 Y93.234 E1.31404
G1 X153.715 Y94.074 E1.3464
G1 X154.115 Y94.918 E1.37746
G1 X154.388 Y95.628 E1.40276
G1 X154.606 Y96.262 E1.42506
G1 X154.917 Y97.245 E1.45935
G1 X155.147 Y98.118 E1.48938
G1 X155.323 Y99.149 E1.52417
G1 X155.398 Y100.12 E1.55656
G1 X155.387 Y101.104 E1.58929
G1 X155.26 Y102.263 E1.62807
G1 X154.734 Y105.389 E1.7335
G1 X154.397 Y107.856 E1.81631
G1 X154.125 Y110.362 E1.90015
G1 X153.921 Y112.879 E1.98414
G1 X153.845 Y114.381 E2.03417
G1 X153.798 Y115.074 E2.05727
G1 X153.663 Y117.628 E2.14233
G1 X153.601 Y120.17 E2.2269
G1 X153.61 Y122.693 E2.31082
G1 X153.679 Y125.053 E2.38935
G1 X153.666 Y125.956 E2.41939
G1 X153.53 Y127.172 E2.46008
G1 X153.023 Y130.182 E2.5616
G1 X152.682 Y132.673 E2.64523
G1 X152.405 Y135.202 E2.72985
G1 X152.2 Y137.724 E2.81401
G1 X152.086 Y139.775 E2.88233
G1 X151.951 Y140.965 E2.92216
G1 X151.881 Y141.376 E2.93603
G1 X151.673 Y142.328 E2.96844
G1 X151.38 Y143.256 E3.00081
G1 X151.013 Y144.145 E3.03279
G1 X150.734 Y144.7 E3.05345
G1 X150.348 Y145.42 E3.08063
G1 X149.931 Y146.147 E3.1085
G1 X149.403 Y146.965 E3.14088
G1 X148.826 Y147.706 E3.17212
G1 X148.139 Y148.444 E3.20566
G1 X147.415 Y149.096 E3.23806
G1 X146.694 Y149.639 E3.26808
G1 X145.808 Y150.191 E3.3028
G1 X145.002 Y150.599 E3.33285
G1 X144.032 Y150.986 E3.36758
G1 X143.099 Y151.264 E3.39996
G1 X142.214 Y151.446 E3.43001
G1 X141.173 Y151.566 E3.46487
G1 X140.17 Y151.588 E3.49824
G1 X137.07 Y151.521 E3.60137
G1 X134.55 Y151.534 E3.68518
G1 X132.751 Y151.594 E3.74505
G1 X131.918 Y151.607 E3.77276
G1 X131.297 Y151.599 E3.79342
G1 X122.878 Y151.238 E4.07369
G1 X122.104 Y151.194 E4.09948
G1 X121.137 Y151.092 E4.13182
G1 X120.181 Y150.906 E4.16421
G1 X119.313 Y150.658 E4.19423
G1 X118.338 Y150.282 E4.22899
G1 X117.464 Y149.851 E4.2614
G1 X116.633 Y149.344 E4.29378
G1 X115.848 Y148.766 E4.3262
G1 X115.144 Y148.145 E4.35743
G1 X114.45 Y147.413 E4.39098
G1 X113.846 Y146.649 E4.42337
G1 X113.312 Y145.835 E4.45575
G1 X112.851 Y144.977 E4.48814
G1 X112.469 Y144.082 E4.52051
G1 X112.166 Y143.156 E4.55291
G1 X111.961 Y142.276 E4.58297
G1 X111.816 Y141.254 E4.6173
G1 X111.772 Y140.596 E4.63923
G1 X111.717 Y138.991 E4.69265
G1 X111.712 Y138.49 E4.70931
G1 X111.741 Y136.17 E4.78648
G1 X111.705 Y133.698 E4.86871
G1 X111.663 Y132.746 E4.9004
G1 X111.616 Y131.276 E4.94932
G1 X111.627 Y130.304 E4.98165
G1 X111.713 Y129.398 E5.01192
G1 X111.854 Y128.395 E5.04561
G1 X112.126 Y126.654 E5.10422
G1 X112.634 Y122.542 E5.24202
G1 X112.949 Y119.907 E5.33029
G1 X113.175 Y117.419 E5.41338
G1 X113.331 Y114.918 E5.49672
G1 X113.417 Y112.396 E5.58066
G1 X113.432 Y109.885 E5.66417
G1 X113.332 Y106.248 E5.78519
G1 X113.351 Y105.275 E5.81755
G1 X113.445 Y104.381 E5.84745
G1 X113.653 Y102.974 E5.89476
G1 X113.822 Y101.918 E5.93033
G1 X114.246 Y98.584 E6.04211
G1 X114.307 Y98.037 E6.06042
G1 X114.561 Y96.126 E6.12454
G1 X114.735 Y95.167 E6.15695
G1 X114.993 Y94.23 E6.18928
G1 X115.331 Y93.316 E6.22169
G1 X115.717 Y92.5 E6.25171
G1 X116.227 Y91.628 E6.28531
G1 X116.813 Y90.807 E6.31886
G0 F6000 X117.117 Y91.067
G1 F1200 X117.728 Y90.354 E6.35009
G1 X118.4 Y89.698 E6.38133
G1 X119.127 Y89.105 E6.41253
G1 X119.903 Y88.579 E6.44371
G1 X120.724 Y88.122 E6.47496
G1 X121.581 Y87.74 E6.50617
G1 X122.468 Y87.436 E6.53736
G1 X123.379 Y87.211 E6.56857
G1 X124.307 Y87.068 E6.5998
G1 X125.24 Y87.007 E6.63089
G1 X125.982 Y87.017 E6.65558
G1 X126.781 Y87.058 E6.68219
G1 X130.41 Y87.301 E6.80316
G1 X131.491 Y87.395 E6.83925
G1 X133.056 Y87.575 E6.89164
G1 X135.656 Y87.824 E6.97851
G1 X137.137 Y87.932 E7.0279
G1 X140.458 Y88.151 E7.1386
G1 X141.667 Y88.258 E7.17897
G1 X144.201 Y88.568 E7.26388
G1 X145.128 Y88.668 E7.29489
G1 X146.072 Y88.815 E7.32666
G1 X146.983 Y89.039 E7.35787
G1 X147.838 Y89.331 E7.38792
G1 X148.728 Y89.727 E7.42032
G1 X149.548 Y90.184 E7.45154
G1 X150.325 Y90.711 E7.48277
G1 X151.051 Y91.304 E7.51394
G1 X151.722 Y91.96 E7.54516
G1 X152.333 Y92.673 E7.57639
G1 X152.879 Y93.437 E7.60762
G1 X153.354 Y94.246 E7.63882
G1 X153.742 Y95.062 E7.66887
G1 X154.01 Y95.758 E7.69368
G1 X154.225 Y96.383 E7.71566
G1 X154.53 Y97.347 E7.74929
G1 X154.76 Y98.22 E7.77932
G1 X154.924 Y99.181 E7.81174
G1 X154.998 Y100.116 E7.84294
G1 X154.989 Y101.06 E7.87434
G1 X154.862 Y102.219 E7.91312
G1 X154.34 Y105.323 E8.01781
G1 X153.999 Y107.813 E8.1014
G1 X153.727 Y110.319 E8.18524
G1 X153.523 Y112.847 E8.26959
G1 X153.446 Y114.354 E8.31978
G1 X153.399 Y115.047 E8.34288
G1 X153.263 Y117.618 E8.42851
G1 X153.201 Y120.16 E8.51309
G1 X153.21 Y122.705 E8.59773
G1 X153.279 Y125.047 E8.67566
G1 X153.266 Y125.95 E8.7057
G1 X153.136 Y127.106 E8.74439
G1 X152.629 Y130.116 E8.84591
G1 X152.284 Y132.629 E8.93028
G1 X152.007 Y135.158 E9.0149
G1 X151.802 Y137.692 E9.09946
G1 X151.689 Y139.73 E9.16734
G1 X151.557 Y140.898 E9.20644
G1 X151.49 Y141.291 E9.2197
G1 X151.291 Y142.208 E9.25091
G1 X151.01 Y143.104 E9.28214
G1 X150.655 Y143.966 E9.31315
G1 X150.382 Y144.511 E9.33342
G1 X150.001 Y145.221 E9.36022
G1 X149.595 Y145.93 E9.38739
G1 X149.087 Y146.719 E9.41861
G1 X148.51 Y147.46 E9.44984
G1 X147.871 Y148.147 E9.48105
G1 X147.174 Y148.776 E9.51227
G1 X146.453 Y149.319 E9.5423
G1 X145.627 Y149.834 E9.57467
G1 X144.821 Y150.242 E9.60472
G1 X143.917 Y150.603 E9.63709
G1 X143.018 Y150.872 E9.6683
G1 X142.133 Y151.054 E9.69836
G1 X141.164 Y151.166 E9.7308
G1 X140.179 Y151.188 E9.76357
G1 X137.077 Y151.121 E9.86677
G1 X134.537 Y151.134 E9.95125
G1 X132.745 Y151.194 E10.01088
G1 X131.923 Y151.207 E10.03823
G1 X131.314 Y151.199 E10.05848
G1 X122.901 Y150.839 E10.33856
G1 X122.145 Y150.796 E10.36374
G1 X121.213 Y150.699 E10.39491
G1 X120.291 Y150.521 E10.42614
G1 X119.423 Y150.273 E10.45616
G1 X118.514 Y149.923 E10.48856
G1 X117.672 Y149.509 E10.51977
G1 X116.87 Y149.022 E10.55098
G1 X116.113 Y148.466 E10.58222
G1 X115.409 Y147.845 E10.61344
G1 X114.763 Y147.164 E10.64466
G1 X114.18 Y146.429 E10.67586
G1 X113.664 Y145.645 E10.70708
G1 X113.219 Y144.819 E10.73828
G1 X112.849 Y143.957 E10.76948
G1 X112.556 Y143.065 E10.80071
G1 X112.351 Y142.185 E10.83076
G1 X112.215 Y141.227 E10.86295
G1 X112.172 Y140.582 E10.88445
G1 X112.117 Y138.987 E10.93753
G1 X112.112 Y138.495 E10.95389
G1 X112.141 Y136.175 E11.03106
G1 X112.105 Y133.68 E11.11406
G1 X112.063 Y132.733 E11.14558
G1 X112.016 Y131.28 E11.19394
G1 X112.025 Y130.342 E11.22514
G1 X112.109 Y129.454 E11.2548
G1 X112.249 Y128.457 E11.28829
G1 X112.521 Y126.716 E11.3469
G1 X113.031 Y122.591 E11.48514
G1 X113.346 Y119.954 E11.57347
G1 X113.573 Y117.455 E11.65693
G1 X113.731 Y114.932 E11.74101
G1 X113.817 Y112.41 E11.82494
G1 X113.832 Y109.887 E11.90886
G1 X113.732 Y106.255 E12.0297
G1 X113.749 Y105.317 E12.06091
G1 X113.841 Y104.439 E12.09027
G1 X114.048 Y103.037 E12.13741
G1 X114.217 Y101.981 E12.17297
G1 X114.643 Y98.635 E12.28516
G1 X114.704 Y98.09 E12.3034
G1 X114.955 Y96.197 E12.36691
G1 X115.121 Y95.272 E12.39817
G1 X115.368 Y94.368 E12.42934
G1 X115.693 Y93.487 E12.46057
G1 X116.079 Y92.671 E12.4906
G1 X116.572 Y91.83 E12.52302
G1 X117.117 Y91.067 E12.55421
G0 F6000 X117.421 Y91.327
G1 F1200 X118.008 Y90.64 E12.58426
G1 X118.653 Y90.008 E12.6143
G1 X119.352 Y89.436 E12.64434
G1 X120.098 Y88.928 E12.67436
G1 X120.887 Y88.487 E12.70442
G1 X121.711 Y88.118 E12.73445
G1 X122.565 Y87.824 E12.76449
G1 X123.441 Y87.606 E12.79451
G1 X124.334 Y87.467 E12.82457
G1 X125.235 Y87.407 E12.85461
G1 X125.961 Y87.416 E12.87875
G1 X126.754 Y87.457 E12.90516
G1 X130.376 Y87.7 E13.0259
G1 X131.445 Y87.792 E13.06159
G1 X133.018 Y87.973 E13.11425
G1 X135.627 Y88.223 E13.20143
G1 X137.108 Y88.331 E13.25082
G1 X140.423 Y88.549 E13.36131
G1 X141.618 Y88.655 E13.40121
G1 X144.158 Y88.966 E13.48632
G1 X145.085 Y89.066 E13.51734
G1 X145.977 Y89.203 E13.54735
G1 X146.854 Y89.418 E13.57738
G1 X147.709 Y89.71 E13.60743
G1 X148.534 Y90.077 E13.63747
G1 X149.324 Y90.515 E13.66751
G1 X150.072 Y91.021 E13.69755
G1 X150.772 Y91.591 E13.72757
G1 X151.419 Y92.221 E13.75761
G1 X152.008 Y92.906 E13.78765
G1 X152.534 Y93.64 E13.81769
G1 X152.993 Y94.418 E13.84773
G1 X153.381 Y95.234 E13.87779
G1 X153.632 Y95.888 E13.90108
G1 X153.844 Y96.504 E13.92275
G1 X154.143 Y97.449 E13.95572
G1 X154.373 Y98.322 E13.98575
G1 X154.525 Y99.213 E14.01581
G1 X154.598 Y100.113 E14.04584
G1 X154.591 Y101.016 E14.07588
G1 X154.464 Y102.175 E14.11465
G1 X153.946 Y105.257 E14.2186
G1 X153.601 Y107.77 E14.30297
G1 X153.329 Y110.276 E14.38681
G1 X153.125 Y112.815 E14.47153
G1 X153.047 Y114.327 E14.52188
G1 X153 Y115.02 E14.54498
G1 X152.863 Y117.608 E14.63118
G1 X152.801 Y120.15 E14.71575
G1 X152.81 Y122.717 E14.80113
G1 X152.879 Y125.041 E14.87846
G1 X152.866 Y125.944 E14.9085
G1 X152.742 Y127.04 E14.94519
G1 X152.235 Y130.05 E15.04671
G1 X151.886 Y132.585 E15.13182
G1 X151.609 Y135.114 E15.21644
G1 X151.404 Y137.66 E15.30139
G1 X151.292 Y139.685 E15.36885
G1 X151.163 Y140.831 E15.4072
G1 X151.099 Y141.207 E15.41989
G1 X150.909 Y142.089 E15.4499
G1 X150.64 Y142.952 E15.47996
G1 X150.297 Y143.787 E15.50999
G1 X150.03 Y144.322 E15.52987
G1 X149.654 Y145.022 E15.5563
G1 X149.258 Y145.714 E15.58282
G1 X148.771 Y146.474 E15.61284
G1 X148.217 Y147.188 E15.6429
G1 X147.603 Y147.85 E15.67293
G1 X146.933 Y148.456 E15.70298
G1 X146.212 Y148.999 E15.733
G1 X145.446 Y149.477 E15.76303
G1 X144.64 Y149.885 E15.79308
G1 X143.802 Y150.22 E15.82309
G1 X142.937 Y150.48 E15.85314
G1 X142.052 Y150.662 E15.88319
G1 X141.155 Y150.766 E15.91322
G1 X140.188 Y150.788 E15.94539
G1 X137.084 Y150.721 E16.04866
G1 X134.524 Y150.734 E16.1338
G1 X132.739 Y150.794 E16.19321
G1 X131.928 Y150.807 E16.22018
G1 X131.331 Y150.799 E16.24004
G1 X122.924 Y150.44 E16.51991
G1 X122.186 Y150.398 E16.5445
G1 X121.288 Y150.306 E16.57452
G1 X120.401 Y150.136 E16.60456
G1 X119.533 Y149.888 E16.63459
G1 X118.69 Y149.564 E16.66462
G1 X117.879 Y149.167 E16.69466
G1 X117.106 Y148.699 E16.72471
G1 X116.377 Y148.166 E16.75475
G1 X115.699 Y147.569 E16.78479
G1 X115.076 Y146.915 E16.81484
G1 X114.514 Y146.209 E16.84485
G1 X114.016 Y145.455 E16.8749
G1 X113.586 Y144.661 E16.90494
G1 X113.229 Y143.832 E16.93496
G1 X112.946 Y142.974 E16.96501
G1 X112.741 Y142.094 E16.99506
G1 X112.614 Y141.2 E17.02509
G1 X112.572 Y140.568 E17.04616
G1 X112.517 Y138.983 E17.09891
G1 X112.512 Y138.5 E17.11497
G1 X112.541 Y136.18 E17.19214
G1 X112.505 Y133.662 E17.2759
G1 X112.463 Y132.72 E17.30726
G1 X112.416 Y131.283 E17.35508
G1 X112.423 Y130.38 E17.38512
G1 X112.505 Y129.51 E17.41418
G1 X112.644 Y128.519 E17.44747
G1 X112.916 Y126.778 E17.50607
G1 X113.428 Y122.64 E17.64475
G1 X113.743 Y120.001 E17.73315
G1 X113.971 Y117.491 E17.81698
G1 X114.131 Y114.946 E17.90179
G1 X114.217 Y112.424 E17.98572
G1 X114.232 Y109.889 E18.07004
G1 X114.132 Y106.262 E18.19072
G1 X114.147 Y105.359 E18.22076
G1 X114.237 Y104.497 E18.24958
G1 X114.443 Y103.1 E18.29655
G1 X114.612 Y102.044 E18.33212
G1 X115.039 Y98.685 E18.44474
G1 X115.101 Y98.142 E18.46292
G1 X115.349 Y96.267 E18.52582
G1 X115.507 Y95.377 E18.55589
G1 X115.743 Y94.506 E18.5859
G1 X116.055 Y93.658 E18.61595
G1 X116.441 Y92.842 E18.64598
G1 X116.898 Y92.062 E18.67605
G1 X117.421 Y91.327 E18.70605
G1 F1500 E12.20605
G0 F6000 X125.641 Y97.806
G1 F1500 E18.70605
G1 F1200 X130.093 Y98.104 E18.85445
G1 X130.097 Y98.121 E18.85504
G1 X130.23 Y98.211 E18.86038
G1 X131.01 Y98.354 E18.88675
G1 X131.033 Y98.357 E18.88752
G1 X140.112 Y98.949 E19.19013
G1 X140.235 Y99.038 E19.19518
G1 X140.743 Y99.152 E19.2125
G1 X140.763 Y99.156 E19.21318
G1 X141.325 Y99.224 E19.23201
G1 X141.336 Y99.225 E19.23237
G1 X143.847 Y99.389 E19.31607
G1 X144.193 Y100.446 E19.35306
G1 X144.122 Y100.54 E19.35698
G1 X144.081 Y100.658 E19.36113
G1 X144.008 Y100.745 E19.36491
G1 X143.961 Y100.861 E19.36907
G1 X143.963 Y100.872 E19.36944
G1 X143.889 Y100.969 E19.3735
G1 X143.867 Y101.006 E19.37493
G1 X143.654 Y101.465 E19.39176
G1 X143.644 Y101.491 E19.39269
G1 X143.632 Y101.53 E19.39405
G1 X143.356 Y102.104 E19.41523
G1 X143.339 Y102.228 E19.41939
G1 X143.39 Y102.32 E19.42289
G1 X143.246 Y102.553 E19.432
G1 X143.224 Y102.644 E19.43512
G1 X142.971 Y103.118 E19.45299
G1 X142.965 Y103.13 E19.45343
G1 X142.659 Y103.811 E19.47827
G1 X142.646 Y103.935 E19.48241
G1 X142.652 Y103.946 E19.48283
G1 X142.053 Y105.522 E19.53891
G1 X142.048 Y105.535 E19.53937
G1 X141.836 Y106.241 E19.56389
G1 X141.833 Y106.254 E19.56433
G1 X141.66 Y106.998 E19.58974
G1 X141.591 Y107.092 E19.59361
G1 X141.509 Y107.49 E19.60713
G1 X141.506 Y107.552 E19.60919
G1 X141.524 Y107.713 E19.61458
G1 X141.567 Y108.95 E19.65575
G1 X141.568 Y108.961 E19.65612
G1 X141.614 Y109.479 E19.67341
G1 X141.615 Y109.491 E19.67381
G1 X141.826 Y110.872 E19.72028
G1 X141.798 Y110.91 E19.72185
G1 X141.793 Y111.016 E19.72538
G1 X141.923 Y111.603 E19.74538
G1 X141.915 Y111.614 E19.74583
G1 X141.911 Y111.731 E19.74972
G1 X142.037 Y112.192 E19.76562
G1 X142.037 Y112.306 E19.76941
G1 X142.147 Y112.624 E19.7806
G1 X142.112 Y112.671 E19.78255
G1 X142.112 Y112.803 E19.78694
G1 X142.247 Y113.183 E19.80035
G1 X142.248 Y113.251 E19.80261
G1 X142.493 Y113.846 E19.82402
G1 X142.488 Y113.852 E19.82428
G1 X142.496 Y114.008 E19.82947
G1 X142.535 Y114.088 E19.83243
G1 X142.465 Y114.179 E19.83625
G1 X142.461 Y114.298 E19.84021
G1 X142.555 Y114.637 E19.85191
G1 X142.051 Y115.533 E19.8861
G1 X135.118 Y115.237 E20.11691
G1 X135.103 Y115.237 E20.1174
G1 X134.687 Y115.249 E20.13125
G1 X134.671 Y115.25 E20.13178
G1 X134.347 Y115.286 E20.14262
G1 X134.326 Y115.29 E20.14333
G1 X133.883 Y115.388 E20.15842
G1 X133.854 Y115.396 E20.15942
G1 X133.464 Y115.546 E20.17332
G1 X124.689 Y115.167 E20.46545
G1 X124.737 Y114.321 E20.49364
G1 X124.736 Y114.295 E20.4945
G1 X124.693 Y113.737 E20.51312
G1 X124.645 Y113.621 E20.51729
G1 X124.625 Y113.612 E20.51802
G1 X124.687 Y112.318 E20.56111
G1 X124.679 Y112.291 E20.56204
G1 X124.726 Y110.196 E20.63174
G1 X124.726 Y110.186 E20.63207
G1 X124.688 Y108.935 E20.6737
G1 X125.259 Y108.935 E20.69269
G1 X125.114 Y111.585 E20.78097
G1 X125.147 Y111.706 E20.78514
G1 X125.244 Y111.784 E20.78928
G1 X125.308 Y111.796 E20.79144
G1 X141.537 Y112.313 E21.33149
G1 X141.656 Y112.278 E21.33562
G1 X141.732 Y112.178 E21.3398
G1 X141.732 Y112.047 E21.34416
