;FLAVOR:Marlin
;TIME:5966
;Filament used: 3.08731m
;Layer height: 0.2
;MINX:74.664
;MINY:73.41
;MINZ:0.2
;MAXX:114.924
;MAXY:147.184
;MAXZ:25.2
;TARGET_MACHINE.NAME:Creality Ender-3 Pro
;Generated with Cura_SteamEngine 5.6.0
M82 ;absolute extrusion mode
; Ender 3 Custom Start G-code
G92 E0 ; Reset Extruder
G28 ; Home all axes
G1 Z5.0 F3000 ; Move Z Axis up a bit during heating to not damage bed
M104 S175 ; Start heating up the nozzle most of the way
M190 S60 ; Start heating the bed, wait until target temperature reached
M109 S200 ; Finish heating the nozzle
G1 Z2.0 F3000 ; Move Z Axis up little to prevent scratching of Heat Bed
G1 X0.1 Y20 Z0.3 F5000.0 ; Move to start position
G1 X0.1 Y200.0 Z0.3 F1500.0 E15 ; Draw the first line
G1 X0.4 Y200.0 Z0.3 F5000.0 ; Move to side a little
G1 X0.4 Y20 Z0.3 F1500.0 E30 ; Draw the second line
G92 E0 ; Reset Extruder
G1 Z2.0 F3000 ; Move Z Axis up little to prevent scratching of Heat Bed
G1 X5 Y20 Z0.3 F5000.0 ; Move over to prevent blob squish
G92 E0
G92 E0
G1 F1500 E-6.5
;LAYER_COUNT:126
;LAYER:0
M107
G0 F6000 X78.755 Y80.511 Z0.2
;TYPE:SKIRT
G1 F1500 E0
G1 F1200 X79.401 Y79.88 E0.03004
G1 X79.855 Y79.493 E0.04988
G1 X80.575 Y78.925 E0.08038
G1 X81.129 Y78.516 E0.10328
G1 X81.887 Y78.004 E0.13371
G1 X82.703 Y77.505 E0.16552
G1 X83.533 Y77.023 E0.19744
G1 X84.382 Y76.581 E0.22928
G1 X85.302 Y76.199 E0.26241
G1 X85.88 Y76.008 E0.28266
G1 X86.248 Y75.898 E0.29543
G1 X87.201 Y75.661 E0.32809
G1 X88.285 Y75.498 E0.36455
G1 X90.57 Y75.279 E0.4409
G1 X93.102 Y74.969 E0.52574
G1 X95.621 Y74.588 E0.61048
G1 X98.093 Y74.144 E0.69401
G1 X99.634 Y73.819 E0.7464
G1 X100.661 Y73.615 E0.78122
G1 X101.623 Y73.47 E0.81358
G1 X102.595 Y73.41 E0.84597
G1 X103.498 Y73.432 E0.87601
G1 X104.537 Y73.55 E0.91079
G1 X105.489 Y73.749 E0.94314
G1 X106.422 Y74.029 E0.97554
G1 X107.261 Y74.363 E1.00557
G1 X108.193 Y74.834 E1.04031
G1 X109.016 Y75.348 E1.07258
G1 X109.702 Y75.86 E1.10105
G1 X110.58 Y76.578 E1.13877
G1 X111.143 Y77.065 E1.16353
G1 X111.799 Y77.685 E1.19355
G1 X112.492 Y78.468 E1.22833
G1 X113.068 Y79.252 E1.26069
G1 X113.573 Y80.085 E1.29309
G1 X114.003 Y80.96 E1.32551
G1 X114.352 Y81.868 E1.35787
G1 X114.622 Y82.805 E1.3903
G1 X114.806 Y83.761 E1.42268
G1 X114.905 Y84.728 E1.45501
G1 X114.92 Y85.631 E1.48505
G1 X114.882 Y86.319 E1.50797
G1 X114.676 Y88.687 E1.58703
G1 X114.526 Y91.197 E1.67066
G1 X114.445 Y93.732 E1.75502
G1 X114.436 Y96.243 E1.83853
G1 X114.498 Y98.751 E1.92197
G1 X114.631 Y101.251 E2.00524
G1 X114.889 Y104.362 E2.10907
G1 X114.924 Y105.265 E2.13913
G1 X114.866 Y106.365 E2.17576
G1 X114.713 Y107.854 E2.22555
G1 X114.495 Y110.426 E2.3114
G1 X114.357 Y112.922 E2.39454
G1 X114.279 Y115.699 E2.48694
G1 X114.242 Y116.334 E2.5081
G1 X114.039 Y118.643 E2.58519
G1 X113.89 Y121.116 E2.66759
G1 X113.806 Y123.684 E2.75305
G1 X113.796 Y126.196 E2.8366
G1 X113.857 Y128.713 E2.92034
G1 X113.985 Y131.171 E3.00221
G1 X114.249 Y134.353 E3.1084
G1 X114.284 Y135.326 E3.14079
G1 X114.239 Y136.228 E3.17083
G1 X114.094 Y137.262 E3.20555
G1 X113.891 Y138.142 E3.23559
G1 X113.567 Y139.135 E3.27033
G1 X113.212 Y139.965 E3.30036
G1 X112.717 Y140.887 E3.33516
G1 X112.18 Y141.699 E3.36754
G1 X111.572 Y142.46 E3.39994
G1 X110.911 Y143.155 E3.43184
G1 X110.471 Y143.558 E3.45168
G1 X109.649 Y144.263 E3.4877
G1 X109.074 Y144.731 E3.51236
G1 X108.292 Y145.31 E3.54472
G1 X107.462 Y145.818 E3.57709
G1 X106.654 Y146.222 E3.60714
G1 X105.682 Y146.604 E3.64187
G1 X104.815 Y146.86 E3.67194
G1 X103.79 Y147.065 E3.70671
G1 X102.822 Y147.167 E3.73908
G1 X101.848 Y147.184 E3.77148
G1 X100.876 Y147.115 E3.80389
G1 X99.906 Y146.96 E3.83656
G1 X97.573 Y146.475 E3.91582
G1 X95.101 Y146.029 E3.99936
G1 X92.601 Y145.651 E4.08346
G1 X90.138 Y145.348 E4.166
G1 X89.118 Y145.258 E4.20005
G1 X87.545 Y145.095 E4.25265
G1 X86.651 Y144.965 E4.2827
G1 X85.642 Y144.726 E4.31719
G1 X84.769 Y144.442 E4.34772
G1 X83.84 Y144.058 E4.38116
G1 X82.989 Y143.619 E4.413
G1 X82.032 Y143.07 E4.4497
G1 X81.176 Y142.546 E4.48308
G1 X80.413 Y142.024 E4.51383
G1 X79.664 Y141.459 E4.54503
G1 X79.251 Y141.131 E4.56258
G1 X78.57 Y140.538 E4.59261
G1 X77.846 Y139.786 E4.62733
G1 X77.254 Y139.047 E4.65882
G1 X76.503 Y137.873 E4.70518
G1 X76.288 Y137.483 E4.71999
G1 X75.862 Y136.614 E4.75218
G1 X75.562 Y135.852 E4.77941
G1 X75.367 Y135.3 E4.79889
G1 X75.162 Y134.643 E4.82178
G1 X75.062 Y134.287 E4.83408
G1 X74.857 Y133.407 E4.86413
G1 X74.713 Y132.374 E4.89882
G1 X74.666 Y131.498 E4.928
G1 X74.665 Y130.538 E4.95993
G1 X74.72 Y128.932 E5.01337
G1 X74.76 Y126.189 E5.10462
G1 X74.759 Y124.366 E5.16525
G1 X74.72 Y121.711 E5.25356
G1 X74.664 Y119.926 E5.31296
G1 X74.671 Y119.016 E5.34323
G1 X74.727 Y118.137 E5.37252
G1 X74.82 Y117.272 E5.40146
G1 X74.947 Y116.225 E5.43654
G1 X75.176 Y113.749 E5.51924
G1 X75.337 Y111.234 E5.60306
G1 X75.426 Y108.737 E5.68617
G1 X75.446 Y106.186 E5.77102
G1 X75.392 Y103.642 E5.85565
G1 X75.307 Y101.721 E5.9196
G1 X75.297 Y101.243 E5.93551
G1 X75.303 Y100.557 E5.95832
G1 X75.358 Y98.939 E6.01217
G1 X75.398 Y96.189 E6.10364
G1 X75.397 Y94.353 E6.16471
G1 X75.359 Y91.733 E6.25186
G1 X75.3 Y89.916 E6.31233
G1 X75.306 Y89.081 E6.3401
G1 X75.372 Y88.109 E6.3725
G1 X75.519 Y87.159 E6.40448
G1 X75.658 Y86.559 E6.42496
G1 X75.786 Y86.069 E6.4418
G1 X75.967 Y85.453 E6.46316
G1 X76.135 Y84.941 E6.48108
G1 X76.479 Y84.032 E6.51341
G1 X76.864 Y83.231 E6.54297
G1 X77.054 Y82.875 E6.55639
G1 X77.551 Y82.036 E6.58882
G1 X78.12 Y81.246 E6.6212
G1 X78.755 Y80.511 E6.65351
G0 F6000 X79.035 Y80.797
G1 F1200 X79.681 Y80.166 E6.68354
G1 X80.103 Y79.807 E6.70197
G1 X80.813 Y79.247 E6.73205
G1 X81.367 Y78.838 E6.75495
G1 X82.096 Y78.345 E6.78422
G1 X82.904 Y77.851 E6.81572
G1 X83.718 Y77.378 E6.84703
G1 X84.567 Y76.936 E6.87887
G1 X85.428 Y76.579 E6.90987
G1 X85.995 Y76.391 E6.92974
G1 X86.345 Y76.286 E6.94189
G1 X87.26 Y76.057 E6.97326
G1 X88.344 Y75.894 E7.00972
G1 X90.619 Y75.676 E7.08574
G1 X93.162 Y75.365 E7.17095
G1 X95.681 Y74.984 E7.25568
G1 X98.164 Y74.538 E7.33959
G1 X99.717 Y74.21 E7.39238
G1 X100.721 Y74.01 E7.42643
G1 X101.648 Y73.869 E7.45762
G1 X102.585 Y73.81 E7.48884
G1 X103.488 Y73.832 E7.51889
G1 X104.456 Y73.942 E7.55129
G1 X105.374 Y74.132 E7.58247
G1 X106.274 Y74.401 E7.61371
G1 X107.113 Y74.735 E7.64375
G1 X107.982 Y75.174 E7.67613
G1 X108.777 Y75.669 E7.70728
G1 X109.449 Y76.17 E7.73516
G1 X110.318 Y76.88 E7.77248
G1 X110.868 Y77.356 E7.79667
G1 X111.524 Y77.976 E7.82669
G1 X112.17 Y78.705 E7.85909
G1 X112.726 Y79.46 E7.89028
G1 X113.214 Y80.262 E7.9215
G1 X113.63 Y81.104 E7.95274
G1 X113.968 Y81.979 E7.98394
G1 X114.229 Y82.881 E8.01517
G1 X114.408 Y83.802 E8.04637
G1 X114.505 Y84.735 E8.07757
G1 X114.52 Y85.638 E8.10761
G1 X114.484 Y86.284 E8.12913
G1 X114.278 Y88.652 E8.20819
G1 X114.126 Y91.184 E8.29255
G1 X114.045 Y93.719 E8.37691
G1 X114.036 Y96.242 E8.46083
G1 X114.098 Y98.761 E8.54463
G1 X114.232 Y101.284 E8.62867
G1 X114.489 Y104.377 E8.7319
G1 X114.524 Y105.28 E8.76195
G1 X114.468 Y106.324 E8.79673
G1 X114.315 Y107.813 E8.84651
G1 X114.097 Y110.392 E8.93259
G1 X113.957 Y112.911 E9.01651
G1 X113.88 Y115.676 E9.10851
G1 X113.844 Y116.299 E9.12926
G1 X113.641 Y118.608 E9.20636
G1 X113.49 Y121.103 E9.28949
G1 X113.406 Y123.671 E9.37495
G1 X113.396 Y126.194 E9.45887
G1 X113.457 Y128.723 E9.543
G1 X113.586 Y131.204 E9.62563
G1 X113.849 Y134.368 E9.73123
G1 X113.884 Y135.306 E9.76245
G1 X113.839 Y136.208 E9.79249
G1 X113.704 Y137.172 E9.82487
G1 X113.501 Y138.052 E9.8549
G1 X113.199 Y138.978 E9.8873
G1 X112.844 Y139.808 E9.91732
G1 X112.383 Y140.667 E9.94975
G1 X111.867 Y141.45 E9.98094
G1 X111.282 Y142.185 E10.01218
G1 X110.641 Y142.86 E10.04314
G1 X110.211 Y143.254 E10.06254
G1 X109.396 Y143.953 E10.09825
G1 X108.836 Y144.41 E10.12229
G1 X108.083 Y144.969 E10.15348
G1 X107.283 Y145.46 E10.1847
G1 X106.475 Y145.864 E10.21475
G1 X105.569 Y146.22 E10.24713
G1 X104.702 Y146.476 E10.27719
G1 X103.747 Y146.667 E10.30959
G1 X102.814 Y146.767 E10.3408
G1 X101.876 Y146.785 E10.372
G1 X100.939 Y146.72 E10.40324
G1 X99.987 Y146.568 E10.4353
G1 X97.644 Y146.081 E10.5149
G1 X95.161 Y145.633 E10.59882
G1 X92.661 Y145.255 E10.68291
G1 X90.187 Y144.951 E10.76582
G1 X89.159 Y144.86 E10.80014
G1 X87.603 Y144.699 E10.85217
G1 X86.709 Y144.569 E10.88222
G1 X85.766 Y144.346 E10.91445
G1 X84.922 Y144.072 E10.94396
G1 X83.993 Y143.688 E10.9774
G1 X83.188 Y143.272 E11.00753
G1 X82.241 Y142.729 E11.04384
G1 X81.402 Y142.216 E11.07655
G1 X80.654 Y141.705 E11.10668
G1 X79.913 Y141.146 E11.13755
G1 X79.514 Y140.829 E11.1545
G1 X78.833 Y140.236 E11.18453
G1 X78.158 Y139.535 E11.2169
G1 X77.591 Y138.831 E11.24697
G1 X76.84 Y137.657 E11.29332
G1 X76.647 Y137.307 E11.30661
G1 X76.234 Y136.467 E11.33775
G1 X75.939 Y135.719 E11.36449
G1 X75.749 Y135.18 E11.3835
G1 X75.547 Y134.535 E11.40598
G1 X75.452 Y134.196 E11.41769
G1 X75.247 Y133.316 E11.44774
G1 X75.112 Y132.353 E11.48008
G1 X75.066 Y131.498 E11.50856
G1 X75.065 Y130.552 E11.54003
G1 X75.12 Y128.946 E11.59347
G1 X75.16 Y126.195 E11.68498
G1 X75.159 Y124.366 E11.74581
G1 X75.12 Y121.705 E11.83433
G1 X75.064 Y119.929 E11.89343
G1 X75.07 Y119.041 E11.92296
G1 X75.125 Y118.18 E11.95166
G1 X75.217 Y117.32 E11.98043
G1 X75.344 Y116.273 E12.0155
G1 X75.574 Y113.786 E12.09858
G1 X75.737 Y111.248 E12.18316
G1 X75.826 Y108.751 E12.26627
G1 X75.846 Y106.189 E12.35148
G1 X75.792 Y103.634 E12.43648
G1 X75.707 Y101.712 E12.50047
G1 X75.697 Y101.247 E12.51594
G1 X75.703 Y100.571 E12.53842
G1 X75.758 Y98.953 E12.59227
G1 X75.798 Y96.195 E12.68401
G1 X75.797 Y94.353 E12.74528
G1 X75.759 Y91.727 E12.83263
G1 X75.7 Y89.918 E12.89283
G1 X75.705 Y89.107 E12.9198
G1 X75.767 Y88.17 E12.95103
G1 X75.909 Y87.249 E12.98203
G1 X76.045 Y86.66 E13.00213
G1 X76.17 Y86.181 E13.0186
G1 X76.347 Y85.577 E13.03953
G1 X76.509 Y85.082 E13.05686
G1 X76.84 Y84.205 E13.08803
G1 X77.217 Y83.419 E13.11703
G1 X77.398 Y83.078 E13.12987
G1 X77.876 Y82.269 E13.16112
G1 X78.423 Y81.507 E13.19232
G1 X79.035 Y80.797 E13.2235
G0 F6000 X79.315 Y81.083
G1 F1200 X79.961 Y80.452 E13.25353
G1 X80.351 Y80.121 E13.27054
G1 X81.051 Y79.569 E13.30019
G1 X81.605 Y79.16 E13.3231
G1 X82.305 Y78.686 E13.35122
G1 X83.105 Y78.197 E13.3824
G1 X83.919 Y77.724 E13.41371
G1 X84.72 Y77.305 E13.44378
G1 X85.554 Y76.959 E13.47381
G1 X86.11 Y76.774 E13.4933
G1 X86.443 Y76.674 E13.50486
G1 X87.319 Y76.453 E13.53491
G1 X88.403 Y76.29 E13.57137
G1 X90.665 Y76.073 E13.64695
G1 X93.222 Y75.761 E13.73263
G1 X95.741 Y75.38 E13.81736
G1 X98.235 Y74.932 E13.90164
G1 X99.8 Y74.601 E13.95485
G1 X100.782 Y74.405 E13.98815
G1 X101.674 Y74.268 E14.01817
G1 X102.575 Y74.21 E14.0482
G1 X103.478 Y74.232 E14.07824
G1 X104.376 Y74.334 E14.1083
G1 X105.26 Y74.515 E14.13831
G1 X106.126 Y74.773 E14.16837
G1 X106.965 Y75.107 E14.1984
G1 X107.771 Y75.514 E14.22843
G1 X108.538 Y75.99 E14.25846
G1 X109.196 Y76.48 E14.28574
G1 X110.056 Y77.183 E14.32269
G1 X110.593 Y77.647 E14.34629
G1 X111.249 Y78.267 E14.37631
G1 X111.848 Y78.943 E14.40636
G1 X112.385 Y79.669 E14.43639
G1 X112.856 Y80.44 E14.46644
G1 X113.257 Y81.249 E14.49647
G1 X113.584 Y82.091 E14.52651
G1 X113.836 Y82.958 E14.55654
G1 X114.01 Y83.844 E14.58658
G1 X114.105 Y84.742 E14.61661
G1 X114.12 Y85.645 E14.64665
G1 X114.086 Y86.249 E14.66677
G1 X113.88 Y88.617 E14.74583
G1 X113.726 Y91.171 E14.83093
G1 X113.645 Y93.706 E14.91528
G1 X113.636 Y96.241 E14.9996
G1 X113.698 Y98.771 E15.08377
G1 X113.833 Y101.317 E15.16857
G1 X114.089 Y104.392 E15.2712
G1 X114.124 Y105.295 E15.30126
G1 X114.07 Y106.283 E15.33417
G1 X113.917 Y107.772 E15.38395
G1 X113.699 Y110.358 E15.47027
G1 X113.557 Y112.9 E15.55495
G1 X113.481 Y115.653 E15.64655
G1 X113.446 Y116.264 E15.6669
G1 X113.243 Y118.573 E15.744
G1 X113.09 Y121.09 E15.82787
G1 X113.006 Y123.658 E15.91332
G1 X112.996 Y126.192 E15.99761
G1 X113.057 Y128.733 E16.08214
G1 X113.187 Y131.237 E16.16554
G1 X113.449 Y134.383 E16.27054
G1 X113.484 Y135.286 E16.3006
G1 X113.439 Y136.188 E16.33063
G1 X113.314 Y137.082 E16.36066
G1 X113.111 Y137.962 E16.39069
G1 X112.831 Y138.821 E16.42074
G1 X112.476 Y139.651 E16.45077
G1 X112.049 Y140.447 E16.48081
G1 X111.553 Y141.202 E16.51086
G1 X110.992 Y141.91 E16.5409
G1 X110.371 Y142.565 E16.57092
G1 X109.951 Y142.95 E16.58987
G1 X109.143 Y143.643 E16.62528
G1 X108.597 Y144.089 E16.64873
G1 X107.873 Y144.628 E16.67875
G1 X107.104 Y145.102 E16.70879
G1 X106.296 Y145.506 E16.73884
G1 X105.456 Y145.836 E16.76886
G1 X104.589 Y146.092 E16.79892
G1 X103.704 Y146.269 E16.82894
G1 X102.806 Y146.367 E16.85899
G1 X101.903 Y146.386 E16.88903
G1 X101.002 Y146.325 E16.91906
G1 X100.068 Y146.176 E16.95052
G1 X97.715 Y145.687 E17.03045
G1 X95.221 Y145.237 E17.11474
G1 X92.721 Y144.859 E17.19884
G1 X90.236 Y144.554 E17.28211
G1 X89.2 Y144.462 E17.3167
G1 X87.661 Y144.303 E17.36816
G1 X86.767 Y144.173 E17.39821
G1 X85.889 Y143.965 E17.42822
G1 X85.075 Y143.702 E17.45667
G1 X84.146 Y143.318 E17.49011
G1 X83.387 Y142.925 E17.51854
G1 X82.45 Y142.388 E17.55446
G1 X81.627 Y141.885 E17.58654
G1 X80.895 Y141.386 E17.616
G1 X80.162 Y140.833 E17.64654
G1 X79.777 Y140.527 E17.6629
G1 X79.096 Y139.934 E17.69293
G1 X78.47 Y139.284 E17.72295
G1 X77.903 Y138.58 E17.75301
G1 X77.19 Y137.464 E17.79706
G1 X77.006 Y137.13 E17.80974
G1 X76.606 Y136.32 E17.83979
G1 X76.316 Y135.587 E17.86601
G1 X76.131 Y135.06 E17.88459
G1 X75.932 Y134.427 E17.90665
G1 X75.842 Y134.105 E17.91777
G1 X75.637 Y133.225 E17.94783
G1 X75.511 Y132.331 E17.97786
G1 X75.466 Y131.498 E18.0056
G1 X75.465 Y130.566 E18.0366
G1 X75.52 Y128.96 E18.09005
G1 X75.56 Y126.201 E18.18182
G1 X75.559 Y124.366 E18.24285
G1 X75.52 Y121.699 E18.33157
G1 X75.464 Y119.931 E18.3904
G1 X75.469 Y119.067 E18.41914
G1 X75.523 Y118.222 E18.4473
G1 X75.614 Y117.368 E18.47587
G1 X75.741 Y116.321 E18.51094
G1 X75.972 Y113.823 E18.59438
G1 X76.137 Y111.262 E18.67974
G1 X76.226 Y108.765 E18.76284
G1 X76.246 Y106.192 E18.84842
G1 X76.192 Y103.626 E18.93379
G1 X76.107 Y101.703 E18.99781
G1 X76.097 Y101.251 E19.01285
G1 X76.103 Y100.585 E19.035
G1 X76.158 Y98.967 E19.08884
G1 X76.198 Y96.201 E19.18085
G1 X76.197 Y94.353 E19.24232
G1 X76.159 Y91.721 E19.32987
G1 X76.1 Y89.92 E19.3898
G1 X76.104 Y89.133 E19.41598
G1 X76.162 Y88.231 E19.44604
G1 X76.299 Y87.339 E19.47605
G1 X76.432 Y86.761 E19.49578
G1 X76.554 Y86.293 E19.51187
G1 X76.727 Y85.701 E19.53238
G1 X76.883 Y85.223 E19.5491
G1 X77.201 Y84.378 E19.57913
G1 X77.57 Y83.607 E19.60756
G1 X77.743 Y83.281 E19.61984
G1 X78.201 Y82.502 E19.64989
G1 X78.727 Y81.768 E19.67993
G1 X79.315 Y81.083 E19.70995
G1 F1500 E13.20995
G0 F6000 X86.904 Y88.183
G1 F1500 E19.70995
G1 F1200 X87.752 Y87.535 E19.74545
G1 X89.115 Y86.72 E19.79827
G1 X89.397 Y86.636 E19.80806
G1 X89.499 Y86.643 E19.81146
G1 X89.513 Y86.643 E19.81192
G1 X89.814 Y86.641 E19.82193
G1 X90.039 Y86.702 E19.82969
G1 X90.449 Y86.94 E19.84546
G1 X90.466 Y86.949 E19.8461
G1 X90.896 Y87.145 E19.86181
G1 X90.91 Y87.151 E19.86232
G1 X91.143 Y87.236 E19.87057
G1 X91.154 Y87.239 E19.87095
G1 X91.415 Y87.318 E19.88002
G1 X91.43 Y87.322 E19.88053
G1 X91.696 Y87.38 E19.88959
G1 X91.717 Y87.384 E19.8903
G1 X92.195 Y87.438 E19.9063
G1 X92.206 Y87.439 E19.90667
G1 X92.735 Y87.467 E19.92429
G1 X92.759 Y87.467 E19.92508
G1 X93.179 Y87.44 E19.93908
G1 X93.223 Y87.461 E19.9407
G1 X93.478 Y87.455 E19.94919
G1 X93.566 Y87.469 E19.95215
G1 X93.813 Y87.452 E19.96039
G1 X93.894 Y87.503 E19.96357
G1 X94.155 Y87.539 E19.97233
G1 X94.173 Y87.541 E19.97294
G1 X94.617 Y87.56 E19.98772
G1 X94.694 Y87.548 E19.99031
G1 X94.849 Y87.492 E19.99579
G1 X94.896 Y87.527 E19.99774
G1 X94.969 Y87.537 E20.00019
G1 X95.294 Y87.519 E20.01102
G1 X95.338 Y87.522 E20.01248
G1 X95.526 Y87.482 E20.01888
G1 X95.558 Y87.508 E20.02025
G1 X95.633 Y87.522 E20.02278
G1 X95.963 Y87.519 E20.03376
G1 X95.996 Y87.52 E20.03486
G1 X96.216 Y87.485 E20.04227
G1 X96.293 Y87.524 E20.04514
G1 X96.644 Y87.524 E20.05681
G1 X96.644 Y87.513 E20.05718
G1 X96.677 Y87.524 E20.05834
G1 X96.888 Y87.491 E20.06544
G1 X96.919 Y87.516 E20.06676
G1 X96.986 Y87.528 E20.06903
G1 X97.325 Y87.532 E20.0803
G1 X97.325 Y87.521 E20.08067
G1 X97.355 Y87.531 E20.08172
G1 X97.593 Y87.499 E20.08971
